(Generated with: DXF2GCODE, Version: Py3.6.7 PyQt5.11.3, Date: $Date: Thu Jan 3 16:29:29 2019 +0100 $)
(Created from file: C:/Users/alaa/Desktop/dxf2gcode-20190103/dxf/probleme.dxf)
(Output format description: G-CODE for LinuxCNC)
(Time: Sun Dec 22 00:42:52 2019)
G21 (Units in millimeters)
G90 (Absolute programming)
G64 (Default cutting) G17 (XY plane) G40 (Cancel radius comp.) G49 (Cancel length comp.)
G0 Z  15.000 

(*** LAYER: 0 ***)
T1 M6
S6000

(* SHAPE Nr: 0 *)
G0 X  40.250 Y  90.000
M3 M8
G0 Z   3.000 
F150
G1 Z  -1.500
F400
G1 X 114.750 Y  90.000
G1 X  92.000 Y  99.500
G1 X 127.000 Y 136.500
G1 X 128.500 Y 149.000
G1 X 120.500 Y 137.000
G1 X 104.000 Y 150.750
G1 X 154.750 Y 171.000
G1 X 179.500 Y 106.500
F150
G1 Z  -3.000
F400
G1 X 154.750 Y 171.000
G1 X 104.000 Y 150.750
G1 X 120.500 Y 137.000
G1 X 128.500 Y 149.000
G1 X 127.000 Y 136.500
G1 X  92.000 Y  99.500
G1 X 114.750 Y  90.000
G1 X  40.250 Y  90.000
F150
G1 Z   3.000
G0 Z  15.000 
M9 M5

(* SHAPE Nr: 1 *)
G0 X 179.500 Y 106.250
M3 M8
G0 Z   3.000 
G1 Z  -1.500
F400
G2 X 183.000 Y  94.000 I  11.208 J  -3.423
F150
G1 Z  -3.000
F400
G3 X 179.500 Y 106.250 I   7.708 J   8.827
F150
G1 Z   3.000
G0 Z  15.000 
M9 M5

(* SHAPE Nr: 2 *)
G0 X 182.750 Y  93.750
M3 M8
G0 Z   3.000 
G1 Z  -1.500
F400
G1 X 189.250 Y  52.500
G1 X  38.750 Y  52.500
G1 X  39.000 Y  59.750
G1 X  71.000 Y  60.000
G1 X  70.500 Y  69.500
G1 X  39.250 Y  69.750
G1 X  40.000 Y  89.750
F150
G1 Z  -3.000
F400
G1 X  39.250 Y  69.750
G1 X  70.500 Y  69.500
G1 X  71.000 Y  60.000
G1 X  39.000 Y  59.750
G1 X  38.750 Y  52.500
G1 X 189.250 Y  52.500
G1 X 182.750 Y  93.750
F150
G1 Z   3.000
G0 Z  15.000 
M9 M5
G0 X   0.000 Y   0.000
M2 (Program end)