(Generated with: DXF2GCODE, Version: Py3.6.7 PyQt5.11.3, Date: $Date: Thu Jan 3 16:29:29 2019 +0100 $)
(Created from file: C:/Users/alaa/Desktop/dxf2gcode-20190103/dxf/vdr_Fraeskontur_Fraesermitte.dxf)
(Output format description: G-CODE for LinuxCNC)
(Time: Sun Dec 22 00:44:07 2019)
G21 (Units in millimeters)
G90 (Absolute programming)
G64 (Default cutting) G17 (XY plane) G40 (Cancel radius comp.) G49 (Cancel length comp.)
G0 Z  15.000 

(*** LAYER: 1 ***)
T1 M6
S6000

(* SHAPE Nr: 0 *)
G0 X11091.000 Y3620.000
M3 M8
G0 Z   3.000 
F150
G1 Z  -1.500
F400
G1 X11091.000 Y4343.000
G1 X13462.000 Y4343.000
G1 X13525.000 Y4345.000
G1 X13587.000 Y4351.000
G1 X13649.000 Y4360.000
G1 X13711.000 Y4374.000
G1 X13771.000 Y4390.000
G1 X13830.000 Y4411.000
G1 X13888.000 Y4435.000
G1 X13944.000 Y4462.000
G1 X13999.000 Y4493.000
G1 X14051.000 Y4527.000
G1 X14102.000 Y4564.000
G1 X14150.000 Y4604.000
G1 X14196.000 Y4647.000
G1 X14239.000 Y4693.000
G1 X14279.000 Y4741.000
G1 X14316.000 Y4791.000
G1 X14350.000 Y4844.000
G1 X14381.000 Y4899.000
G1 X14408.000 Y4955.000
G1 X14432.000 Y5013.000
G1 X14452.000 Y5072.000
G1 X14469.000 Y5132.000
G1 X14482.000 Y5194.000
G1 X14492.000 Y5255.000
G1 X14497.000 Y5318.000
G1 X14499.000 Y5380.000
G1 X14497.000 Y5443.000
G1 X14492.000 Y5505.000
G1 X14482.000 Y5567.000
G1 X14469.000 Y5629.000
G1 X14452.000 Y5689.000
G1 X14432.000 Y5748.000
G1 X14408.000 Y5806.000
G1 X14381.000 Y5862.000
G1 X14350.000 Y5917.000
G1 X14316.000 Y5970.000
G1 X14279.000 Y6020.000
G1 X14239.000 Y6068.000
G1 X14196.000 Y6114.000
G1 X14150.000 Y6157.000
G1 X14102.000 Y6197.000
G1 X14051.000 Y6234.000
G1 X13999.000 Y6268.000
G1 X13944.000 Y6299.000
G1 X13888.000 Y6326.000
G1 X13830.000 Y6350.000
G1 X13771.000 Y6370.000
G1 X13711.000 Y6387.000
G1 X13649.000 Y6400.000
G1 X13587.000 Y6410.000
G1 X13525.000 Y6416.000
G1 X13462.000 Y6417.000
G1 X10322.000 Y6417.000
G1 X10250.000 Y6498.000
G1 X10176.000 Y6575.000
G1 X10099.000 Y6650.000
G1 X10019.000 Y6722.000
G1 X9937.000 Y6791.000
G1 X9852.000 Y6858.000
G1 X9765.000 Y6921.000
G1 X9676.000 Y6981.000
G1 X9584.000 Y7037.000
G1 X9491.000 Y7091.000
G1 X9396.000 Y7141.000
G1 X13462.000 Y7141.000
G1 X13547.000 Y7139.000
G1 X13631.000 Y7133.000
G1 X13714.000 Y7123.000
G1 X13797.000 Y7109.000
G1 X13879.000 Y7091.000
G1 X13961.000 Y7069.000
G1 X14041.000 Y7043.000
G1 X14120.000 Y7014.000
G1 X14197.000 Y6980.000
G1 X14273.000 Y6943.000
G1 X14347.000 Y6903.000
G1 X14418.000 Y6859.000
G1 X14488.000 Y6811.000
G1 X14555.000 Y6761.000
G1 X14620.000 Y6707.000
G1 X14682.000 Y6650.000
G1 X14741.000 Y6590.000
G1 X14798.000 Y6528.000
G1 X14851.000 Y6463.000
G1 X14901.000 Y6395.000
G1 X14948.000 Y6325.000
G1 X14992.000 Y6253.000
G1 X15031.000 Y6179.000
G1 X15068.000 Y6103.000
G1 X15101.000 Y6025.000
G1 X15130.000 Y5946.000
G1 X15155.000 Y5866.000
G1 X15176.000 Y5784.000
G1 X15193.000 Y5702.000
G1 X15207.000 Y5619.000
G1 X15216.000 Y5535.000
G1 X15221.000 Y5451.000
G1 X15223.000 Y5367.000
G1 X15220.000 Y5283.000
G1 X15214.000 Y5199.000
G1 X15203.000 Y5115.000
G1 X15188.000 Y5032.000
G1 X15170.000 Y4950.000
G1 X15147.000 Y4869.000
G1 X15121.000 Y4789.000
G1 X15090.000 Y4711.000
G1 X15057.000 Y4633.000
G1 X15019.000 Y4558.000
G1 X14978.000 Y4485.000
G1 X14933.000 Y4413.000
G1 X14885.000 Y4344.000
G1 X14834.000 Y4277.000
G1 X14780.000 Y4213.000
G1 X14723.000 Y4151.000
G1 X14662.000 Y4092.000
G1 X14599.000 Y4036.000
G1 X14534.000 Y3984.000
G1 X14466.000 Y3934.000
G1 X14396.000 Y3888.000
G1 X14323.000 Y3845.000
G1 X14249.000 Y3805.000
G1 X14172.000 Y3769.000
G1 X14095.000 Y3737.000
G1 X14015.000 Y3709.000
G1 X13935.000 Y3684.000
G1 X13853.000 Y3664.000
G1 X13771.000 Y3647.000
G1 X13687.000 Y3634.000
G1 X13604.000 Y3626.000
G1 X13586.000 Y3622.000
G1 X13570.000 Y3615.000
G1 X13556.000 Y3605.000
G1 X13545.000 Y3592.000
G1 X13536.000 Y3577.000
G1 X13531.000 Y3560.000
G1 X13530.000 Y3542.000
G1 X13532.000 Y3525.000
G1 X13539.000 Y3509.000
G1 X13548.000 Y3494.000
G1 X13561.000 Y3482.000
G1 X13576.000 Y3473.000
G1 X13646.000 Y3437.000
G1 X13714.000 Y3398.000
G1 X13780.000 Y3356.000
G1 X13844.000 Y3310.000
G1 X13905.000 Y3261.000
G1 X13964.000 Y3208.000
G1 X14020.000 Y3153.000
G1 X14073.000 Y3095.000
G1 X14122.000 Y3034.000
G1 X14169.000 Y2971.000
G1 X15748.000 Y 528.000
G1 X14887.000 Y 528.000
G1 X13523.000 Y2637.000
G1 X13480.000 Y2713.000
G1 X13434.000 Y2786.000
G1 X13385.000 Y2857.000
G1 X13332.000 Y2926.000
G1 X13277.000 Y2992.000
G1 X13218.000 Y3056.000
G1 X13156.000 Y3117.000
G1 X13091.000 Y3174.000
G1 X13024.000 Y3229.000
G1 X12955.000 Y3281.000
G1 X12883.000 Y3329.000
G1 X12809.000 Y3374.000
G1 X12732.000 Y3415.000
G1 X12655.000 Y3453.000
G1 X12575.000 Y3487.000
G1 X12494.000 Y3517.000
G1 X12411.000 Y3544.000
G1 X12328.000 Y3566.000
G1 X12243.000 Y3585.000
G1 X12158.000 Y3600.000
G1 X12072.000 Y3611.000
G1 X11985.000 Y3617.000
G1 X11899.000 Y3620.000
G1 X11091.000 Y3620.000
F150
G1 Z  -3.000
F400
G1 X11091.000 Y4343.000
G1 X13462.000 Y4343.000
G1 X13525.000 Y4345.000
G1 X13587.000 Y4351.000
G1 X13649.000 Y4360.000
G1 X13711.000 Y4374.000
G1 X13771.000 Y4390.000
G1 X13830.000 Y4411.000
G1 X13888.000 Y4435.000
G1 X13944.000 Y4462.000
G1 X13999.000 Y4493.000
G1 X14051.000 Y4527.000
G1 X14102.000 Y4564.000
G1 X14150.000 Y4604.000
G1 X14196.000 Y4647.000
G1 X14239.000 Y4693.000
G1 X14279.000 Y4741.000
G1 X14316.000 Y4791.000
G1 X14350.000 Y4844.000
G1 X14381.000 Y4899.000
G1 X14408.000 Y4955.000
G1 X14432.000 Y5013.000
G1 X14452.000 Y5072.000
G1 X14469.000 Y5132.000
G1 X14482.000 Y5194.000
G1 X14492.000 Y5255.000
G1 X14497.000 Y5318.000
G1 X14499.000 Y5380.000
G1 X14497.000 Y5443.000
G1 X14492.000 Y5505.000
G1 X14482.000 Y5567.000
G1 X14469.000 Y5629.000
G1 X14452.000 Y5689.000
G1 X14432.000 Y5748.000
G1 X14408.000 Y5806.000
G1 X14381.000 Y5862.000
G1 X14350.000 Y5917.000
G1 X14316.000 Y5970.000
G1 X14279.000 Y6020.000
G1 X14239.000 Y6068.000
G1 X14196.000 Y6114.000
G1 X14150.000 Y6157.000
G1 X14102.000 Y6197.000
G1 X14051.000 Y6234.000
G1 X13999.000 Y6268.000
G1 X13944.000 Y6299.000
G1 X13888.000 Y6326.000
G1 X13830.000 Y6350.000
G1 X13771.000 Y6370.000
G1 X13711.000 Y6387.000
G1 X13649.000 Y6400.000
G1 X13587.000 Y6410.000
G1 X13525.000 Y6416.000
G1 X13462.000 Y6417.000
G1 X10322.000 Y6417.000
G1 X10250.000 Y6498.000
G1 X10176.000 Y6575.000
G1 X10099.000 Y6650.000
G1 X10019.000 Y6722.000
G1 X9937.000 Y6791.000
G1 X9852.000 Y6858.000
G1 X9765.000 Y6921.000
G1 X9676.000 Y6981.000
G1 X9584.000 Y7037.000
G1 X9491.000 Y7091.000
G1 X9396.000 Y7141.000
G1 X13462.000 Y7141.000
G1 X13547.000 Y7139.000
G1 X13631.000 Y7133.000
G1 X13714.000 Y7123.000
G1 X13797.000 Y7109.000
G1 X13879.000 Y7091.000
G1 X13961.000 Y7069.000
G1 X14041.000 Y7043.000
G1 X14120.000 Y7014.000
G1 X14197.000 Y6980.000
G1 X14273.000 Y6943.000
G1 X14347.000 Y6903.000
G1 X14418.000 Y6859.000
G1 X14488.000 Y6811.000
G1 X14555.000 Y6761.000
G1 X14620.000 Y6707.000
G1 X14682.000 Y6650.000
G1 X14741.000 Y6590.000
G1 X14798.000 Y6528.000
G1 X14851.000 Y6463.000
G1 X14901.000 Y6395.000
G1 X14948.000 Y6325.000
G1 X14992.000 Y6253.000
G1 X15031.000 Y6179.000
G1 X15068.000 Y6103.000
G1 X15101.000 Y6025.000
G1 X15130.000 Y5946.000
G1 X15155.000 Y5866.000
G1 X15176.000 Y5784.000
G1 X15193.000 Y5702.000
G1 X15207.000 Y5619.000
G1 X15216.000 Y5535.000
G1 X15221.000 Y5451.000
G1 X15223.000 Y5367.000
G1 X15220.000 Y5283.000
G1 X15214.000 Y5199.000
G1 X15203.000 Y5115.000
G1 X15188.000 Y5032.000
G1 X15170.000 Y4950.000
G1 X15147.000 Y4869.000
G1 X15121.000 Y4789.000
G1 X15090.000 Y4711.000
G1 X15057.000 Y4633.000
G1 X15019.000 Y4558.000
G1 X14978.000 Y4485.000
G1 X14933.000 Y4413.000
G1 X14885.000 Y4344.000
G1 X14834.000 Y4277.000
G1 X14780.000 Y4213.000
G1 X14723.000 Y4151.000
G1 X14662.000 Y4092.000
G1 X14599.000 Y4036.000
G1 X14534.000 Y3984.000
G1 X14466.000 Y3934.000
G1 X14396.000 Y3888.000
G1 X14323.000 Y3845.000
G1 X14249.000 Y3805.000
G1 X14172.000 Y3769.000
G1 X14095.000 Y3737.000
G1 X14015.000 Y3709.000
G1 X13935.000 Y3684.000
G1 X13853.000 Y3664.000
G1 X13771.000 Y3647.000
G1 X13687.000 Y3634.000
G1 X13604.000 Y3626.000
G1 X13586.000 Y3622.000
G1 X13570.000 Y3615.000
G1 X13556.000 Y3605.000
G1 X13545.000 Y3592.000
G1 X13536.000 Y3577.000
G1 X13531.000 Y3560.000
G1 X13530.000 Y3542.000
G1 X13532.000 Y3525.000
G1 X13539.000 Y3509.000
G1 X13548.000 Y3494.000
G1 X13561.000 Y3482.000
G1 X13576.000 Y3473.000
G1 X13646.000 Y3437.000
G1 X13714.000 Y3398.000
G1 X13780.000 Y3356.000
G1 X13844.000 Y3310.000
G1 X13905.000 Y3261.000
G1 X13964.000 Y3208.000
G1 X14020.000 Y3153.000
G1 X14073.000 Y3095.000
G1 X14122.000 Y3034.000
G1 X14169.000 Y2971.000
G1 X15748.000 Y 528.000
G1 X14887.000 Y 528.000
G1 X13523.000 Y2637.000
G1 X13480.000 Y2713.000
G1 X13434.000 Y2786.000
G1 X13385.000 Y2857.000
G1 X13332.000 Y2926.000
G1 X13277.000 Y2992.000
G1 X13218.000 Y3056.000
G1 X13156.000 Y3117.000
G1 X13091.000 Y3174.000
G1 X13024.000 Y3229.000
G1 X12955.000 Y3281.000
G1 X12883.000 Y3329.000
G1 X12809.000 Y3374.000
G1 X12732.000 Y3415.000
G1 X12655.000 Y3453.000
G1 X12575.000 Y3487.000
G1 X12494.000 Y3517.000
G1 X12411.000 Y3544.000
G1 X12328.000 Y3566.000
G1 X12243.000 Y3585.000
G1 X12158.000 Y3600.000
G1 X12072.000 Y3611.000
G1 X11985.000 Y3617.000
G1 X11899.000 Y3620.000
G1 X11091.000 Y3620.000
F150
G1 Z   3.000
G0 Z  15.000 
M9 M5

(* SHAPE Nr: 1 *)
G0 X3255.000 Y 719.000
M3 M8
G0 Z   3.000 
G1 Z  -1.500
F400
G1 X5109.000 Y5857.000
G1 X5135.000 Y5921.000
G1 X5164.000 Y5984.000
G1 X5197.000 Y6045.000
G1 X5233.000 Y6104.000
G1 X5273.000 Y6161.000
G1 X5316.000 Y6216.000
G1 X5362.000 Y6268.000
G1 X5411.000 Y6317.000
G1 X5462.000 Y6363.000
G1 X5517.000 Y6406.000
G1 X5573.000 Y6446.000
G1 X5632.000 Y6482.000
G1 X5693.000 Y6515.000
G1 X5756.000 Y6545.000
G1 X5821.000 Y6570.000
G1 X5887.000 Y6592.000
G1 X5954.000 Y6610.000
G1 X6021.000 Y6624.000
G1 X6090.000 Y6634.000
G1 X6159.000 Y6641.000
G1 X6229.000 Y6643.000
G1 X8040.000 Y6643.000
G1 X8133.000 Y6641.000
G1 X8226.000 Y6635.000
G1 X8318.000 Y6625.000
G1 X8410.000 Y6612.000
G1 X8501.000 Y6594.000
G1 X8591.000 Y6573.000
G1 X8680.000 Y6548.000
G1 X8768.000 Y6519.000
G1 X8855.000 Y6486.000
G1 X8941.000 Y6450.000
G1 X9024.000 Y6410.000
G1 X9106.000 Y6367.000
G1 X9186.000 Y6320.000
G1 X9264.000 Y6270.000
G1 X9340.000 Y6216.000
G1 X9414.000 Y6160.000
G1 X9485.000 Y6100.000
G1 X9553.000 Y6037.000
G1 X9619.000 Y5972.000
G1 X9682.000 Y5904.000
G1 X9742.000 Y5833.000
G1 X9799.000 Y5760.000
G1 X9853.000 Y5684.000
G1 X9903.000 Y5606.000
G1 X9950.000 Y5527.000
G1 X9994.000 Y5445.000
G1 X10034.000 Y5361.000
G1 X10071.000 Y5276.000
G1 X10104.000 Y5189.000
G1 X10133.000 Y5101.000
G1 X10159.000 Y5012.000
G1 X10181.000 Y4922.000
G1 X10198.000 Y4831.000
G1 X10213.000 Y4739.000
G1 X10223.000 Y4647.000
G1 X10240.000 Y4485.000
G1 X10253.000 Y4323.000
G1 X10263.000 Y4160.000
G1 X10269.000 Y3997.000
G1 X10271.000 Y3835.000
G1 X10269.000 Y3672.000
G1 X10263.000 Y3509.000
G1 X10253.000 Y3346.000
G1 X10240.000 Y3184.000
G1 X10223.000 Y3022.000
G1 X10213.000 Y2930.000
G1 X10198.000 Y2838.000
G1 X10181.000 Y2747.000
G1 X10159.000 Y2657.000
G1 X10133.000 Y2568.000
G1 X10104.000 Y2480.000
G1 X10071.000 Y2393.000
G1 X10034.000 Y2308.000
G1 X9994.000 Y2224.000
G1 X9950.000 Y2142.000
G1 X9903.000 Y2063.000
G1 X9853.000 Y1985.000
G1 X9799.000 Y1909.000
G1 X9742.000 Y1836.000
G1 X9682.000 Y1765.000
G1 X9619.000 Y1697.000
G1 X9553.000 Y1632.000
G1 X9485.000 Y1569.000
G1 X9414.000 Y1509.000
G1 X9340.000 Y1453.000
G1 X9264.000 Y1399.000
G1 X9186.000 Y1349.000
G1 X9106.000 Y1302.000
G1 X9024.000 Y1259.000
G1 X8941.000 Y1219.000
G1 X8855.000 Y1183.000
G1 X8768.000 Y1150.000
G1 X8680.000 Y1121.000
G1 X8591.000 Y1096.000
G1 X8501.000 Y1075.000
G1 X8410.000 Y1057.000
G1 X8318.000 Y1044.000
G1 X8226.000 Y1034.000
G1 X8133.000 Y1028.000
G1 X8040.000 Y1026.000
G1 X5609.000 Y1026.000
F150
G1 Z  -3.000
F400
G1 X8040.000 Y1026.000
G1 X8133.000 Y1028.000
G1 X8226.000 Y1034.000
G1 X8318.000 Y1044.000
G1 X8410.000 Y1057.000
G1 X8501.000 Y1075.000
G1 X8591.000 Y1096.000
G1 X8680.000 Y1121.000
G1 X8768.000 Y1150.000
G1 X8855.000 Y1183.000
G1 X8941.000 Y1219.000
G1 X9024.000 Y1259.000
G1 X9106.000 Y1302.000
G1 X9186.000 Y1349.000
G1 X9264.000 Y1399.000
G1 X9340.000 Y1453.000
G1 X9414.000 Y1509.000
G1 X9485.000 Y1569.000
G1 X9553.000 Y1632.000
G1 X9619.000 Y1697.000
G1 X9682.000 Y1765.000
G1 X9742.000 Y1836.000
G1 X9799.000 Y1909.000
G1 X9853.000 Y1985.000
G1 X9903.000 Y2063.000
G1 X9950.000 Y2142.000
G1 X9994.000 Y2224.000
G1 X10034.000 Y2308.000
G1 X10071.000 Y2393.000
G1 X10104.000 Y2480.000
G1 X10133.000 Y2568.000
G1 X10159.000 Y2657.000
G1 X10181.000 Y2747.000
G1 X10198.000 Y2838.000
G1 X10213.000 Y2930.000
G1 X10223.000 Y3022.000
G1 X10240.000 Y3184.000
G1 X10253.000 Y3346.000
G1 X10263.000 Y3509.000
G1 X10269.000 Y3672.000
G1 X10271.000 Y3835.000
G1 X10269.000 Y3997.000
G1 X10263.000 Y4160.000
G1 X10253.000 Y4323.000
G1 X10240.000 Y4485.000
G1 X10223.000 Y4647.000
G1 X10213.000 Y4739.000
G1 X10198.000 Y4831.000
G1 X10181.000 Y4922.000
G1 X10159.000 Y5012.000
G1 X10133.000 Y5101.000
G1 X10104.000 Y5189.000
G1 X10071.000 Y5276.000
G1 X10034.000 Y5361.000
G1 X9994.000 Y5445.000
G1 X9950.000 Y5527.000
G1 X9903.000 Y5606.000
G1 X9853.000 Y5684.000
G1 X9799.000 Y5760.000
G1 X9742.000 Y5833.000
G1 X9682.000 Y5904.000
G1 X9619.000 Y5972.000
G1 X9553.000 Y6037.000
G1 X9485.000 Y6100.000
G1 X9414.000 Y6160.000
G1 X9340.000 Y6216.000
G1 X9264.000 Y6270.000
G1 X9186.000 Y6320.000
G1 X9106.000 Y6367.000
G1 X9024.000 Y6410.000
G1 X8941.000 Y6450.000
G1 X8855.000 Y6486.000
G1 X8768.000 Y6519.000
G1 X8680.000 Y6548.000
G1 X8591.000 Y6573.000
G1 X8501.000 Y6594.000
G1 X8410.000 Y6612.000
G1 X8318.000 Y6625.000
G1 X8226.000 Y6635.000
G1 X8133.000 Y6641.000
G1 X8040.000 Y6643.000
G1 X6229.000 Y6643.000
G1 X6159.000 Y6641.000
G1 X6090.000 Y6634.000
G1 X6021.000 Y6624.000
G1 X5954.000 Y6610.000
G1 X5887.000 Y6592.000
G1 X5821.000 Y6570.000
G1 X5756.000 Y6545.000
G1 X5693.000 Y6515.000
G1 X5632.000 Y6482.000
G1 X5573.000 Y6446.000
G1 X5517.000 Y6406.000
G1 X5462.000 Y6363.000
G1 X5411.000 Y6317.000
G1 X5362.000 Y6268.000
G1 X5316.000 Y6216.000
G1 X5273.000 Y6161.000
G1 X5233.000 Y6104.000
G1 X5197.000 Y6045.000
G1 X5164.000 Y5984.000
G1 X5135.000 Y5921.000
G1 X5109.000 Y5857.000
G1 X3255.000 Y 719.000
F150
G1 Z   3.000
G0 Z  15.000 
M9 M5

(* SHAPE Nr: 2 *)
G0 X3110.000 Y1099.000
M3 M8
G0 Z   3.000 
G1 Z  -1.500
F400
G1 X4857.000 Y5963.000
G1 X4886.000 Y6034.000
G1 X4919.000 Y6104.000
G1 X4955.000 Y6173.000
G1 X4995.000 Y6239.000
G1 X5038.000 Y6303.000
G1 X5084.000 Y6365.000
G1 X5134.000 Y6424.000
G1 X5187.000 Y6480.000
G1 X5243.000 Y6534.000
G1 X5301.000 Y6584.000
G1 X5362.000 Y6632.000
G1 X5425.000 Y6676.000
G1 X5491.000 Y6716.000
G1 X5559.000 Y6754.000
G1 X5629.000 Y6787.000
G1 X5700.000 Y6817.000
G1 X5773.000 Y6843.000
G1 X5847.000 Y6865.000
G1 X5922.000 Y6883.000
G1 X5998.000 Y6898.000
G1 X6074.000 Y6908.000
G1 X6151.000 Y6914.000
G1 X6229.000 Y6916.000
G1 X8040.000 Y6916.000
G1 X8139.000 Y6914.000
G1 X8238.000 Y6908.000
G1 X8336.000 Y6898.000
G1 X8434.000 Y6884.000
G1 X8532.000 Y6867.000
G1 X8628.000 Y6845.000
G1 X8724.000 Y6820.000
G1 X8819.000 Y6790.000
G1 X8912.000 Y6757.000
G1 X9004.000 Y6720.000
G1 X9094.000 Y6680.000
G1 X9183.000 Y6636.000
G1 X9269.000 Y6588.000
G1 X9354.000 Y6537.000
G1 X9437.000 Y6483.000
G1 X9517.000 Y6425.000
G1 X9595.000 Y6364.000
G1 X9671.000 Y6300.000
G1 X9744.000 Y6233.000
G1 X9814.000 Y6164.000
G1 X9881.000 Y6091.000
G1 X9946.000 Y6016.000
G1 X10007.000 Y5938.000
G1 X10065.000 Y5858.000
G1 X10120.000 Y5775.000
G1 X10171.000 Y5691.000
G1 X10219.000 Y5604.000
G1 X10264.000 Y5516.000
G1 X10305.000 Y5426.000
G1 X10342.000 Y5334.000
G1 X10375.000 Y5241.000
G1 X10405.000 Y5147.000
G1 X10431.000 Y5051.000
G1 X10453.000 Y4955.000
G1 X10471.000 Y4857.000
G1 X10485.000 Y4759.000
G1 X10496.000 Y4661.000
G1 X10513.000 Y4496.000
G1 X10527.000 Y4331.000
G1 X10536.000 Y4166.000
G1 X10542.000 Y4000.000
G1 X10544.000 Y3835.000
G1 X10542.000 Y3669.000
G1 X10536.000 Y3503.000
G1 X10527.000 Y3338.000
G1 X10513.000 Y3173.000
G1 X10496.000 Y3008.000
G1 X10485.000 Y2910.000
G1 X10471.000 Y2812.000
G1 X10453.000 Y2714.000
G1 X10431.000 Y2618.000
G1 X10405.000 Y2522.000
G1 X10375.000 Y2428.000
G1 X10342.000 Y2335.000
G1 X10305.000 Y2243.000
G1 X10264.000 Y2153.000
G1 X10219.000 Y2065.000
G1 X10171.000 Y1978.000
G1 X10120.000 Y1893.000
G1 X10065.000 Y1811.000
G1 X10007.000 Y1731.000
G1 X9945.000 Y1653.000
G1 X9881.000 Y1578.000
G1 X9814.000 Y1505.000
G1 X9744.000 Y1435.000
G1 X9671.000 Y1368.000
G1 X9595.000 Y1304.000
G1 X9517.000 Y1244.000
G1 X9437.000 Y1186.000
G1 X9354.000 Y1132.000
G1 X9269.000 Y1080.000
G1 X9182.000 Y1033.000
G1 X9094.000 Y 989.000
G1 X9003.000 Y 948.000
G1 X8911.000 Y 912.000
G1 X8818.000 Y 879.000
G1 X8724.000 Y 849.000
G1 X8628.000 Y 824.000
G1 X8531.000 Y 802.000
G1 X8434.000 Y 784.000
G1 X8336.000 Y 771.000
G1 X8237.000 Y 761.000
G1 X8139.000 Y 755.000
G1 X8040.000 Y 753.000
G1 X5609.000 Y 753.000
F150
G1 Z  -3.000
F400
G1 X8040.000 Y 753.000
G1 X8139.000 Y 755.000
G1 X8237.000 Y 761.000
G1 X8336.000 Y 771.000
G1 X8434.000 Y 784.000
G1 X8531.000 Y 802.000
G1 X8628.000 Y 824.000
G1 X8724.000 Y 849.000
G1 X8818.000 Y 879.000
G1 X8911.000 Y 912.000
G1 X9003.000 Y 948.000
G1 X9094.000 Y 989.000
G1 X9182.000 Y1033.000
G1 X9269.000 Y1080.000
G1 X9354.000 Y1132.000
G1 X9437.000 Y1186.000
G1 X9517.000 Y1244.000
G1 X9595.000 Y1304.000
G1 X9671.000 Y1368.000
G1 X9744.000 Y1435.000
G1 X9814.000 Y1505.000
G1 X9881.000 Y1578.000
G1 X9945.000 Y1653.000
G1 X10007.000 Y1731.000
G1 X10065.000 Y1811.000
G1 X10120.000 Y1893.000
G1 X10171.000 Y1978.000
G1 X10219.000 Y2065.000
G1 X10264.000 Y2153.000
G1 X10305.000 Y2243.000
G1 X10342.000 Y2335.000
G1 X10375.000 Y2428.000
G1 X10405.000 Y2522.000
G1 X10431.000 Y2618.000
G1 X10453.000 Y2714.000
G1 X10471.000 Y2812.000
G1 X10485.000 Y2910.000
G1 X10496.000 Y3008.000
G1 X10513.000 Y3173.000
G1 X10527.000 Y3338.000
G1 X10536.000 Y3503.000
G1 X10542.000 Y3669.000
G1 X10544.000 Y3835.000
G1 X10542.000 Y4000.000
G1 X10536.000 Y4166.000
G1 X10527.000 Y4331.000
G1 X10513.000 Y4496.000
G1 X10496.000 Y4661.000
G1 X10485.000 Y4759.000
G1 X10471.000 Y4857.000
G1 X10453.000 Y4955.000
G1 X10431.000 Y5051.000
G1 X10405.000 Y5147.000
G1 X10375.000 Y5241.000
G1 X10342.000 Y5334.000
G1 X10305.000 Y5426.000
G1 X10264.000 Y5516.000
G1 X10219.000 Y5604.000
G1 X10171.000 Y5691.000
G1 X10120.000 Y5775.000
G1 X10065.000 Y5858.000
G1 X10007.000 Y5938.000
G1 X9946.000 Y6016.000
G1 X9881.000 Y6091.000
G1 X9814.000 Y6164.000
G1 X9744.000 Y6233.000
G1 X9671.000 Y6300.000
G1 X9595.000 Y6364.000
G1 X9517.000 Y6425.000
G1 X9437.000 Y6483.000
G1 X9354.000 Y6537.000
G1 X9269.000 Y6588.000
G1 X9183.000 Y6636.000
G1 X9094.000 Y6680.000
G1 X9004.000 Y6720.000
G1 X8912.000 Y6757.000
G1 X8819.000 Y6790.000
G1 X8724.000 Y6820.000
G1 X8628.000 Y6845.000
G1 X8532.000 Y6867.000
G1 X8434.000 Y6884.000
G1 X8336.000 Y6898.000
G1 X8238.000 Y6908.000
G1 X8139.000 Y6914.000
G1 X8040.000 Y6916.000
G1 X6229.000 Y6916.000
G1 X6151.000 Y6914.000
G1 X6074.000 Y6908.000
G1 X5998.000 Y6898.000
G1 X5922.000 Y6883.000
G1 X5847.000 Y6865.000
G1 X5773.000 Y6843.000
G1 X5700.000 Y6817.000
G1 X5629.000 Y6787.000
G1 X5559.000 Y6754.000
G1 X5491.000 Y6716.000
G1 X5425.000 Y6676.000
G1 X5362.000 Y6632.000
G1 X5301.000 Y6584.000
G1 X5243.000 Y6534.000
G1 X5187.000 Y6480.000
G1 X5134.000 Y6424.000
G1 X5084.000 Y6365.000
G1 X5038.000 Y6303.000
G1 X4995.000 Y6239.000
G1 X4955.000 Y6173.000
G1 X4919.000 Y6104.000
G1 X4886.000 Y6034.000
G1 X4857.000 Y5963.000
G1 X3110.000 Y1099.000
F150
G1 Z   3.000
G0 Z  15.000 
M9 M5

(* SHAPE Nr: 3 *)
G0 X9849.000 Y6860.000
M3 M8
G0 Z   3.000 
G1 Z  -1.500
F400
G1 X13462.000 Y6860.000
G1 X13540.000 Y6858.000
G1 X13618.000 Y6851.000
G1 X13696.000 Y6841.000
G1 X13772.000 Y6827.000
G1 X13848.000 Y6808.000
G1 X13923.000 Y6786.000
G1 X13997.000 Y6760.000
G1 X14069.000 Y6730.000
G1 X14139.000 Y6696.000
G1 X14207.000 Y6658.000
G1 X14274.000 Y6617.000
G1 X14338.000 Y6573.000
G1 X14399.000 Y6525.000
G1 X14459.000 Y6474.000
G1 X14515.000 Y6420.000
G1 X14568.000 Y6363.000
G1 X14619.000 Y6303.000
G1 X14666.000 Y6241.000
G1 X14709.000 Y6176.000
G1 X14750.000 Y6109.000
G1 X14786.000 Y6040.000
G1 X14819.000 Y5970.000
G1 X14848.000 Y5897.000
G1 X14874.000 Y5823.000
G1 X14895.000 Y5748.000
G1 X14912.000 Y5672.000
G1 X14926.000 Y5595.000
G1 X14935.000 Y5518.000
G1 X14940.000 Y5440.000
G1 X14941.000 Y5362.000
G1 X14938.000 Y5284.000
G1 X14931.000 Y5206.000
G1 X14920.000 Y5129.000
G1 X14905.000 Y5052.000
G1 X14885.000 Y4977.000
G1 X14862.000 Y4902.000
G1 X14835.000 Y4829.000
G1 X14804.000 Y4757.000
G1 X14769.000 Y4687.000
G1 X14731.000 Y4619.000
G1 X14689.000 Y4554.000
G1 X14643.000 Y4490.000
G1 X14595.000 Y4429.000
G1 X14543.000 Y4371.000
G1 X14488.000 Y4315.000
G1 X14431.000 Y4262.000
G1 X14370.000 Y4213.000
G1 X14307.000 Y4166.000
G1 X14242.000 Y4124.000
G1 X14175.000 Y4084.000
G1 X14105.000 Y4048.000
G1 X14034.000 Y4016.000
G1 X13962.000 Y3988.000
G1 X13887.000 Y3964.000
G1 X13812.000 Y3943.000
G1 X13736.000 Y3927.000
G1 X13659.000 Y3914.000
G1 X13581.000 Y3906.000
G1 X13544.000 Y3901.000
G1 X13507.000 Y3892.000
G1 X13471.000 Y3879.000
G1 X13437.000 Y3863.000
G1 X13405.000 Y3843.000
G1 X13375.000 Y3820.000
G1 X13347.000 Y3794.000
G1 X13323.000 Y3765.000
G1 X13301.000 Y3734.000
G1 X13283.000 Y3701.000
G1 X13269.000 Y3666.000
G1 X13258.000 Y3630.000
G1 X13251.000 Y3592.000
G1 X13248.000 Y3555.000
G1 X13249.000 Y3517.000
G1 X13254.000 Y3479.000
G1 X13263.000 Y3443.000
G1 X13276.000 Y3407.000
G1 X13292.000 Y3373.000
G1 X13224.000 Y3430.000
G1 X13153.000 Y3485.000
G1 X13080.000 Y3536.000
G1 X13004.000 Y3585.000
G1 X12927.000 Y3630.000
G1 X12848.000 Y3672.000
G1 X12767.000 Y3711.000
G1 X12685.000 Y3746.000
G1 X12601.000 Y3778.000
G1 X12517.000 Y3806.000
G1 X12431.000 Y3831.000
G1 X12344.000 Y3852.000
G1 X12256.000 Y3869.000
G1 X12167.000 Y3883.000
G1 X12078.000 Y3893.000
G1 X11989.000 Y3899.000
G1 X11900.000 Y3901.000
G1 X11091.000 Y3901.000
F150
G1 Z  -3.000
F400
G1 X11900.000 Y3901.000
G1 X11989.000 Y3899.000
G1 X12078.000 Y3893.000
G1 X12167.000 Y3883.000
G1 X12256.000 Y3869.000
G1 X12344.000 Y3852.000
G1 X12431.000 Y3831.000
G1 X12517.000 Y3806.000
G1 X12601.000 Y3778.000
G1 X12685.000 Y3746.000
G1 X12767.000 Y3711.000
G1 X12848.000 Y3672.000
G1 X12927.000 Y3630.000
G1 X13004.000 Y3585.000
G1 X13080.000 Y3536.000
G1 X13153.000 Y3485.000
G1 X13224.000 Y3430.000
G1 X13292.000 Y3373.000
G1 X13276.000 Y3407.000
G1 X13263.000 Y3443.000
G1 X13254.000 Y3479.000
G1 X13249.000 Y3517.000
G1 X13248.000 Y3555.000
G1 X13251.000 Y3592.000
G1 X13258.000 Y3630.000
G1 X13269.000 Y3666.000
G1 X13283.000 Y3701.000
G1 X13301.000 Y3734.000
G1 X13323.000 Y3765.000
G1 X13347.000 Y3794.000
G1 X13375.000 Y3820.000
G1 X13405.000 Y3843.000
G1 X13437.000 Y3863.000
G1 X13471.000 Y3879.000
G1 X13507.000 Y3892.000
G1 X13544.000 Y3901.000
G1 X13581.000 Y3906.000
G1 X13659.000 Y3914.000
G1 X13736.000 Y3927.000
G1 X13812.000 Y3943.000
G1 X13887.000 Y3964.000
G1 X13962.000 Y3988.000
G1 X14034.000 Y4016.000
G1 X14105.000 Y4048.000
G1 X14175.000 Y4084.000
G1 X14242.000 Y4124.000
G1 X14307.000 Y4166.000
G1 X14370.000 Y4213.000
G1 X14431.000 Y4262.000
G1 X14488.000 Y4315.000
G1 X14543.000 Y4371.000
G1 X14595.000 Y4429.000
G1 X14643.000 Y4490.000
G1 X14689.000 Y4554.000
G1 X14731.000 Y4619.000
G1 X14769.000 Y4687.000
G1 X14804.000 Y4757.000
G1 X14835.000 Y4829.000
G1 X14862.000 Y4902.000
G1 X14885.000 Y4977.000
G1 X14905.000 Y5052.000
G1 X14920.000 Y5129.000
G1 X14931.000 Y5206.000
G1 X14938.000 Y5284.000
G1 X14941.000 Y5362.000
G1 X14940.000 Y5440.000
G1 X14935.000 Y5518.000
G1 X14926.000 Y5595.000
G1 X14912.000 Y5672.000
G1 X14895.000 Y5748.000
G1 X14874.000 Y5823.000
G1 X14848.000 Y5897.000
G1 X14819.000 Y5970.000
G1 X14786.000 Y6040.000
G1 X14750.000 Y6109.000
G1 X14709.000 Y6176.000
G1 X14666.000 Y6241.000
G1 X14619.000 Y6303.000
G1 X14568.000 Y6363.000
G1 X14515.000 Y6420.000
G1 X14459.000 Y6474.000
G1 X14399.000 Y6525.000
G1 X14338.000 Y6573.000
G1 X14274.000 Y6617.000
G1 X14207.000 Y6658.000
G1 X14139.000 Y6696.000
G1 X14069.000 Y6730.000
G1 X13997.000 Y6760.000
G1 X13923.000 Y6786.000
G1 X13848.000 Y6808.000
G1 X13772.000 Y6827.000
G1 X13696.000 Y6841.000
G1 X13618.000 Y6851.000
G1 X13540.000 Y6858.000
G1 X13462.000 Y6860.000
G1 X9849.000 Y6860.000
F150
G1 Z   3.000
G0 Z  15.000 
M9 M5

(* SHAPE Nr: 4 *)
G0 X10046.000 Y6699.000
M3 M8
G0 Z   3.000 
G1 Z  -1.500
F400
G1 X13462.000 Y6699.000
G1 X13534.000 Y6697.000
G1 X13605.000 Y6691.000
G1 X13676.000 Y6681.000
G1 X13746.000 Y6668.000
G1 X13815.000 Y6651.000
G1 X13883.000 Y6630.000
G1 X13950.000 Y6605.000
G1 X14016.000 Y6577.000
G1 X14080.000 Y6545.000
G1 X14142.000 Y6510.000
G1 X14202.000 Y6472.000
G1 X14260.000 Y6430.000
G1 X14316.000 Y6385.000
G1 X14369.000 Y6338.000
G1 X14420.000 Y6287.000
G1 X14467.000 Y6234.000
G1 X14512.000 Y6178.000
G1 X14554.000 Y6120.000
G1 X14592.000 Y6060.000
G1 X14627.000 Y5998.000
G1 X14659.000 Y5934.000
G1 X14687.000 Y5868.000
G1 X14712.000 Y5801.000
G1 X14733.000 Y5733.000
G1 X14750.000 Y5664.000
G1 X14763.000 Y5594.000
G1 X14773.000 Y5523.000
G1 X14779.000 Y5452.000
G1 X14781.000 Y5380.000
G1 X14779.000 Y5309.000
G1 X14773.000 Y5238.000
G1 X14763.000 Y5167.000
G1 X14750.000 Y5097.000
G1 X14733.000 Y5028.000
G1 X14712.000 Y4959.000
G1 X14687.000 Y4892.000
G1 X14659.000 Y4827.000
G1 X14627.000 Y4763.000
G1 X14592.000 Y4701.000
G1 X14554.000 Y4641.000
G1 X14512.000 Y4583.000
G1 X14467.000 Y4527.000
G1 X14420.000 Y4474.000
G1 X14369.000 Y4423.000
G1 X14316.000 Y4376.000
G1 X14260.000 Y4331.000
G1 X14202.000 Y4289.000
G1 X14142.000 Y4251.000
G1 X14080.000 Y4216.000
G1 X14016.000 Y4184.000
G1 X13950.000 Y4156.000
G1 X13883.000 Y4131.000
G1 X13815.000 Y4110.000
G1 X13746.000 Y4093.000
G1 X13676.000 Y4079.000
G1 X13605.000 Y4070.000
G1 X13534.000 Y4064.000
G1 X13462.000 Y4062.000
G1 X11091.000 Y4062.000
F150
G1 Z  -3.000
F400
G1 X13462.000 Y4062.000
G1 X13534.000 Y4064.000
G1 X13605.000 Y4070.000
G1 X13676.000 Y4079.000
G1 X13746.000 Y4093.000
G1 X13815.000 Y4110.000
G1 X13883.000 Y4131.000
G1 X13950.000 Y4156.000
G1 X14016.000 Y4184.000
G1 X14080.000 Y4216.000
G1 X14142.000 Y4251.000
G1 X14202.000 Y4289.000
G1 X14260.000 Y4331.000
G1 X14316.000 Y4376.000
G1 X14369.000 Y4423.000
G1 X14420.000 Y4474.000
G1 X14467.000 Y4527.000
G1 X14512.000 Y4583.000
G1 X14554.000 Y4641.000
G1 X14592.000 Y4701.000
G1 X14627.000 Y4763.000
G1 X14659.000 Y4827.000
G1 X14687.000 Y4892.000
G1 X14712.000 Y4959.000
G1 X14733.000 Y5028.000
G1 X14750.000 Y5097.000
G1 X14763.000 Y5167.000
G1 X14773.000 Y5238.000
G1 X14779.000 Y5309.000
G1 X14781.000 Y5380.000
G1 X14779.000 Y5452.000
G1 X14773.000 Y5523.000
G1 X14763.000 Y5594.000
G1 X14750.000 Y5664.000
G1 X14733.000 Y5733.000
G1 X14712.000 Y5801.000
G1 X14687.000 Y5868.000
G1 X14659.000 Y5934.000
G1 X14627.000 Y5998.000
G1 X14592.000 Y6060.000
G1 X14554.000 Y6120.000
G1 X14512.000 Y6178.000
G1 X14467.000 Y6234.000
G1 X14420.000 Y6287.000
G1 X14369.000 Y6338.000
G1 X14316.000 Y6385.000
G1 X14260.000 Y6430.000
G1 X14202.000 Y6472.000
G1 X14142.000 Y6510.000
G1 X14080.000 Y6545.000
G1 X14016.000 Y6577.000
G1 X13950.000 Y6605.000
G1 X13883.000 Y6630.000
G1 X13815.000 Y6651.000
G1 X13746.000 Y6668.000
G1 X13676.000 Y6681.000
G1 X13605.000 Y6691.000
G1 X13534.000 Y6697.000
G1 X13462.000 Y6699.000
G1 X10046.000 Y6699.000
F150
G1 Z   3.000
G0 Z  15.000 
M9 M5

(* SHAPE Nr: 5 *)
G0 X10107.000 Y6643.000
M3 M8
G0 Z   3.000 
G1 Z  -1.500
F400
G1 X13462.000 Y6643.000
G1 X13533.000 Y6641.000
G1 X13604.000 Y6635.000
G1 X13674.000 Y6625.000
G1 X13743.000 Y6611.000
G1 X13812.000 Y6593.000
G1 X13879.000 Y6572.000
G1 X13945.000 Y6546.000
G1 X14010.000 Y6518.000
G1 X14073.000 Y6485.000
G1 X14134.000 Y6449.000
G1 X14193.000 Y6410.000
G1 X14249.000 Y6367.000
G1 X14303.000 Y6322.000
G1 X14355.000 Y6273.000
G1 X14403.000 Y6221.000
G1 X14449.000 Y6167.000
G1 X14492.000 Y6111.000
G1 X14531.000 Y6052.000
G1 X14567.000 Y5991.000
G1 X14599.000 Y5928.000
G1 X14628.000 Y5863.000
G1 X14654.000 Y5797.000
G1 X14675.000 Y5730.000
G1 X14693.000 Y5661.000
G1 X14707.000 Y5592.000
G1 X14717.000 Y5522.000
G1 X14722.000 Y5451.000
G1 X14724.000 Y5380.000
G1 X14722.000 Y5310.000
G1 X14717.000 Y5239.000
G1 X14707.000 Y5169.000
G1 X14693.000 Y5100.000
G1 X14675.000 Y5031.000
G1 X14654.000 Y4964.000
G1 X14628.000 Y4897.000
G1 X14599.000 Y4833.000
G1 X14567.000 Y4770.000
G1 X14531.000 Y4709.000
G1 X14492.000 Y4650.000
G1 X14449.000 Y4594.000
G1 X14403.000 Y4539.000
G1 X14355.000 Y4488.000
G1 X14303.000 Y4439.000
G1 X14249.000 Y4394.000
G1 X14193.000 Y4351.000
G1 X14134.000 Y4312.000
G1 X14073.000 Y4276.000
G1 X14010.000 Y4243.000
G1 X13945.000 Y4214.000
G1 X13879.000 Y4189.000
G1 X13812.000 Y4168.000
G1 X13743.000 Y4150.000
G1 X13674.000 Y4136.000
G1 X13604.000 Y4126.000
G1 X13533.000 Y4120.000
G1 X13462.000 Y4118.000
G1 X11091.000 Y4118.000
F150
G1 Z  -3.000
F400
G1 X13462.000 Y4118.000
G1 X13533.000 Y4120.000
G1 X13604.000 Y4126.000
G1 X13674.000 Y4136.000
G1 X13743.000 Y4150.000
G1 X13812.000 Y4168.000
G1 X13879.000 Y4189.000
G1 X13945.000 Y4214.000
G1 X14010.000 Y4243.000
G1 X14073.000 Y4276.000
G1 X14134.000 Y4312.000
G1 X14193.000 Y4351.000
G1 X14249.000 Y4394.000
G1 X14303.000 Y4439.000
G1 X14355.000 Y4488.000
G1 X14403.000 Y4539.000
G1 X14449.000 Y4594.000
G1 X14492.000 Y4650.000
G1 X14531.000 Y4709.000
G1 X14567.000 Y4770.000
G1 X14599.000 Y4833.000
G1 X14628.000 Y4897.000
G1 X14654.000 Y4964.000
G1 X14675.000 Y5031.000
G1 X14693.000 Y5100.000
G1 X14707.000 Y5169.000
G1 X14717.000 Y5239.000
G1 X14722.000 Y5310.000
G1 X14724.000 Y5380.000
G1 X14722.000 Y5451.000
G1 X14717.000 Y5522.000
G1 X14707.000 Y5592.000
G1 X14693.000 Y5661.000
G1 X14675.000 Y5730.000
G1 X14654.000 Y5797.000
G1 X14628.000 Y5863.000
G1 X14599.000 Y5928.000
G1 X14567.000 Y5991.000
G1 X14531.000 Y6052.000
G1 X14492.000 Y6111.000
G1 X14449.000 Y6167.000
G1 X14403.000 Y6221.000
G1 X14355.000 Y6273.000
G1 X14303.000 Y6322.000
G1 X14249.000 Y6367.000
G1 X14193.000 Y6410.000
G1 X14134.000 Y6449.000
G1 X14073.000 Y6485.000
G1 X14010.000 Y6518.000
G1 X13945.000 Y6546.000
G1 X13879.000 Y6572.000
G1 X13812.000 Y6593.000
G1 X13743.000 Y6611.000
G1 X13674.000 Y6625.000
G1 X13604.000 Y6635.000
G1 X13533.000 Y6641.000
G1 X13462.000 Y6643.000
G1 X10107.000 Y6643.000
F150
G1 Z   3.000
G0 Z  15.000 
M9 M5

(* SHAPE Nr: 6 *)
G0 X9772.000 Y6916.000
M3 M8
G0 Z   3.000 
G1 Z  -1.500
F400
G1 X13462.000 Y6916.000
G1 X13541.000 Y6914.000
G1 X13619.000 Y6908.000
G1 X13696.000 Y6898.000
G1 X13774.000 Y6884.000
G1 X13850.000 Y6866.000
G1 X13925.000 Y6844.000
G1 X13999.000 Y6819.000
G1 X14072.000 Y6790.000
G1 X14143.000 Y6757.000
G1 X14212.000 Y6720.000
G1 X14280.000 Y6680.000
G1 X14345.000 Y6637.000
G1 X14408.000 Y6590.000
G1 X14468.000 Y6541.000
G1 X14526.000 Y6488.000
G1 X14581.000 Y6432.000
G1 X14633.000 Y6374.000
G1 X14682.000 Y6313.000
G1 X14728.000 Y6249.000
G1 X14771.000 Y6183.000
G1 X14810.000 Y6116.000
G1 X14846.000 Y6046.000
G1 X14878.000 Y5975.000
G1 X14907.000 Y5902.000
G1 X14931.000 Y5827.000
G1 X14952.000 Y5752.000
G1 X14969.000 Y5675.000
G1 X14982.000 Y5598.000
G1 X14991.000 Y5520.000
G1 X14997.000 Y5442.000
G1 X14998.000 Y5364.000
G1 X14995.000 Y5285.000
G1 X14988.000 Y5207.000
G1 X14977.000 Y5130.000
G1 X14962.000 Y5053.000
G1 X14944.000 Y4977.000
G1 X14921.000 Y4902.000
G1 X14895.000 Y4828.000
G1 X14865.000 Y4756.000
G1 X14831.000 Y4685.000
G1 X14794.000 Y4616.000
G1 X14753.000 Y4549.000
G1 X14709.000 Y4484.000
G1 X14662.000 Y4422.000
G1 X14611.000 Y4362.000
G1 X14558.000 Y4305.000
G1 X14502.000 Y4250.000
G1 X14443.000 Y4199.000
G1 X14381.000 Y4150.000
G1 X14317.000 Y4105.000
G1 X14251.000 Y4063.000
G1 X14183.000 Y4025.000
G1 X14113.000 Y3990.000
G1 X14041.000 Y3958.000
G1 X13968.000 Y3931.000
G1 X13893.000 Y3907.000
G1 X13817.000 Y3887.000
G1 X13741.000 Y3870.000
G1 X13663.000 Y3858.000
G1 X13586.000 Y3850.000
G1 X13552.000 Y3845.000
G1 X13519.000 Y3837.000
G1 X13488.000 Y3825.000
G1 X13458.000 Y3810.000
G1 X13429.000 Y3792.000
G1 X13403.000 Y3770.000
G1 X13380.000 Y3746.000
G1 X13359.000 Y3720.000
G1 X13341.000 Y3691.000
G1 X13327.000 Y3660.000
G1 X13316.000 Y3629.000
G1 X13309.000 Y3596.000
G1 X13305.000 Y3562.000
G1 X13305.000 Y3528.000
G1 X13309.000 Y3495.000
G1 X13316.000 Y3462.000
G1 X13327.000 Y3430.000
G1 X13342.000 Y3400.000
G1 X13708.000 Y3130.000
G1 X13760.000 Y3089.000
G1 X13809.000 Y3045.000
G1 X13856.000 Y2998.000
G1 X13901.000 Y2949.000
G1 X13943.000 Y2898.000
G1 X13982.000 Y2845.000
G1 X15480.000 Y 528.000
F150
G1 Z  -3.000
F400
G1 X13982.000 Y2845.000
G1 X13943.000 Y2898.000
G1 X13901.000 Y2949.000
G1 X13856.000 Y2998.000
G1 X13809.000 Y3045.000
G1 X13760.000 Y3089.000
G1 X13708.000 Y3130.000
G1 X13342.000 Y3400.000
G1 X13327.000 Y3430.000
G1 X13316.000 Y3462.000
G1 X13309.000 Y3495.000
G1 X13305.000 Y3528.000
G1 X13305.000 Y3562.000
G1 X13309.000 Y3596.000
G1 X13316.000 Y3629.000
G1 X13327.000 Y3660.000
G1 X13341.000 Y3691.000
G1 X13359.000 Y3720.000
G1 X13380.000 Y3746.000
G1 X13403.000 Y3770.000
G1 X13429.000 Y3792.000
G1 X13458.000 Y3810.000
G1 X13488.000 Y3825.000
G1 X13519.000 Y3837.000
G1 X13552.000 Y3845.000
G1 X13586.000 Y3850.000
G1 X13663.000 Y3858.000
G1 X13741.000 Y3870.000
G1 X13817.000 Y3887.000
G1 X13893.000 Y3907.000
G1 X13968.000 Y3931.000
G1 X14041.000 Y3958.000
G1 X14113.000 Y3990.000
G1 X14183.000 Y4025.000
G1 X14251.000 Y4063.000
G1 X14317.000 Y4105.000
G1 X14381.000 Y4150.000
G1 X14443.000 Y4199.000
G1 X14502.000 Y4250.000
G1 X14558.000 Y4305.000
G1 X14611.000 Y4362.000
G1 X14662.000 Y4422.000
G1 X14709.000 Y4484.000
G1 X14753.000 Y4549.000
G1 X14794.000 Y4616.000
G1 X14831.000 Y4685.000
G1 X14865.000 Y4756.000
G1 X14895.000 Y4828.000
G1 X14921.000 Y4902.000
G1 X14944.000 Y4977.000
G1 X14962.000 Y5053.000
G1 X14977.000 Y5130.000
G1 X14988.000 Y5207.000
G1 X14995.000 Y5285.000
G1 X14998.000 Y5364.000
G1 X14997.000 Y5442.000
G1 X14991.000 Y5520.000
G1 X14982.000 Y5598.000
G1 X14969.000 Y5675.000
G1 X14952.000 Y5752.000
G1 X14931.000 Y5827.000
G1 X14907.000 Y5902.000
G1 X14878.000 Y5975.000
G1 X14846.000 Y6046.000
G1 X14810.000 Y6116.000
G1 X14771.000 Y6183.000
G1 X14728.000 Y6249.000
G1 X14682.000 Y6313.000
G1 X14633.000 Y6374.000
G1 X14581.000 Y6432.000
G1 X14526.000 Y6488.000
G1 X14468.000 Y6541.000
G1 X14408.000 Y6590.000
G1 X14345.000 Y6637.000
G1 X14280.000 Y6680.000
G1 X14212.000 Y6720.000
G1 X14143.000 Y6757.000
G1 X14072.000 Y6790.000
G1 X13999.000 Y6819.000
G1 X13925.000 Y6844.000
G1 X13850.000 Y6866.000
G1 X13774.000 Y6884.000
G1 X13696.000 Y6898.000
G1 X13619.000 Y6908.000
G1 X13541.000 Y6914.000
G1 X13462.000 Y6916.000
G1 X9772.000 Y6916.000
F150
G1 Z   3.000
G0 Z  15.000 
M9 M5

(* SHAPE Nr: 7 *)
G0 X15222.000 Y 528.000
M3 M8
G0 Z   3.000 
G1 Z  -1.500
F400
G1 X13765.000 Y2780.000
G1 X13722.000 Y2857.000
G1 X13676.000 Y2931.000
G1 X13626.000 Y3004.000
G1 X13574.000 Y3074.000
G1 X13519.000 Y3142.000
G1 X13461.000 Y3208.000
G1 X13400.000 Y3272.000
G1 X13337.000 Y3333.000
G1 X13674.000 Y3085.000
G1 X13723.000 Y3046.000
G1 X13771.000 Y3004.000
G1 X13815.000 Y2960.000
G1 X13858.000 Y2913.000
G1 X13898.000 Y2864.000
G1 X13935.000 Y2814.000
G1 X15413.000 Y 528.000
F150
G1 Z  -3.000
F400
G1 X13935.000 Y2814.000
G1 X13898.000 Y2864.000
G1 X13858.000 Y2913.000
G1 X13815.000 Y2960.000
G1 X13771.000 Y3004.000
G1 X13723.000 Y3046.000
G1 X13674.000 Y3085.000
G1 X13337.000 Y3333.000
G1 X13400.000 Y3272.000
G1 X13461.000 Y3208.000
G1 X13519.000 Y3142.000
G1 X13574.000 Y3074.000
G1 X13626.000 Y3004.000
G1 X13676.000 Y2931.000
G1 X13722.000 Y2857.000
G1 X13765.000 Y2780.000
G1 X15222.000 Y 528.000
F150
G1 Z   3.000
G0 Z  15.000 
M9 M5

(* SHAPE Nr: 8 *)
G0 X13552.000 Y3101.000
M3 M8
G0 Z   3.000 
G1 Z  -1.500
F400
G1 X13608.000 Y3065.000
G1 X13661.000 Y3024.000
G1 X13712.000 Y2981.000
G1 X13760.000 Y2935.000
G1 X13806.000 Y2887.000
G1 X13849.000 Y2836.000
G1 X13888.000 Y2782.000
G1 X15346.000 Y 528.000
F150
G1 Z  -3.000
F400
G1 X13888.000 Y2782.000
G1 X13849.000 Y2836.000
G1 X13806.000 Y2887.000
G1 X13760.000 Y2935.000
G1 X13712.000 Y2981.000
G1 X13661.000 Y3024.000
G1 X13608.000 Y3065.000
G1 X13552.000 Y3101.000
F150
G1 Z   3.000
G0 Z  15.000 
M9 M5

(* SHAPE Nr: 9 *)
G0 X11091.000 Y3845.000
M3 M8
G0 Z   3.000 
G1 Z  -1.500
F400
G1 X11899.000 Y3845.000
G1 X11992.000 Y3842.000
G1 X12084.000 Y3835.000
G1 X12176.000 Y3825.000
G1 X12268.000 Y3810.000
G1 X12358.000 Y3791.000
G1 X12448.000 Y3768.000
G1 X12536.000 Y3740.000
G1 X12624.000 Y3710.000
G1 X12709.000 Y3675.000
G1 X12794.000 Y3636.000
G1 X12876.000 Y3594.000
G1 X12956.000 Y3548.000
G1 X13035.000 Y3499.000
G1 X13111.000 Y3446.000
G1 X13184.000 Y3390.000
G1 X13255.000 Y3330.000
G1 X13324.000 Y3268.000
G1 X13390.000 Y3202.000
G1 X13452.000 Y3133.000
G1 X13512.000 Y3062.000
G1 X13568.000 Y2988.000
G1 X13621.000 Y2911.000
G1 X13671.000 Y2832.000
G1 X13717.000 Y2752.000
G1 X15155.000 Y 528.000
F150
G1 Z  -3.000
F400
G1 X13717.000 Y2752.000
G1 X13671.000 Y2832.000
G1 X13621.000 Y2911.000
G1 X13568.000 Y2988.000
G1 X13512.000 Y3062.000
G1 X13452.000 Y3133.000
G1 X13390.000 Y3202.000
G1 X13324.000 Y3268.000
G1 X13255.000 Y3330.000
G1 X13184.000 Y3390.000
G1 X13111.000 Y3446.000
G1 X13035.000 Y3499.000
G1 X12956.000 Y3548.000
G1 X12876.000 Y3594.000
G1 X12794.000 Y3636.000
G1 X12709.000 Y3675.000
G1 X12624.000 Y3710.000
G1 X12536.000 Y3740.000
G1 X12448.000 Y3768.000
G1 X12358.000 Y3791.000
G1 X12268.000 Y3810.000
G1 X12176.000 Y3825.000
G1 X12084.000 Y3835.000
G1 X11992.000 Y3842.000
G1 X11899.000 Y3845.000
G1 X11091.000 Y3845.000
F150
G1 Z   3.000
G0 Z  15.000 
M9 M5

(* SHAPE Nr: 10 *)
G0 X9981.000 Y6755.000
M3 M8
G0 Z   3.000 
G1 Z  -1.500
F400
G1 X13462.000 Y6755.000
G1 X13536.000 Y6753.000
G1 X13610.000 Y6747.000
G1 X13683.000 Y6737.000
G1 X13755.000 Y6723.000
G1 X13827.000 Y6706.000
G1 X13898.000 Y6684.000
G1 X13967.000 Y6659.000
G1 X14035.000 Y6630.000
G1 X14101.000 Y6598.000
G1 X14166.000 Y6561.000
G1 X14228.000 Y6522.000
G1 X14288.000 Y6479.000
G1 X14346.000 Y6433.000
G1 X14401.000 Y6384.000
G1 X14454.000 Y6332.000
G1 X14504.000 Y6278.000
G1 X14550.000 Y6221.000
G1 X14594.000 Y6161.000
G1 X14634.000 Y6099.000
G1 X14671.000 Y6035.000
G1 X14704.000 Y5969.000
G1 X14734.000 Y5902.000
G1 X14760.000 Y5833.000
G1 X14783.000 Y5762.000
G1 X14801.000 Y5691.000
G1 X14816.000 Y5619.000
G1 X14827.000 Y5546.000
G1 X14834.000 Y5472.000
G1 X14837.000 Y5398.000
G1 X14836.000 Y5325.000
G1 X14831.000 Y5251.000
G1 X14822.000 Y5178.000
G1 X14809.000 Y5105.000
G1 X14792.000 Y5033.000
G1 X14772.000 Y4962.000
G1 X14747.000 Y4892.000
G1 X14719.000 Y4824.000
G1 X14688.000 Y4757.000
G1 X14652.000 Y4692.000
G1 X14614.000 Y4630.000
G1 X14572.000 Y4569.000
G1 X14527.000 Y4510.000
G1 X14478.000 Y4455.000
G1 X14427.000 Y4401.000
G1 X14373.000 Y4351.000
G1 X14317.000 Y4303.000
G1 X14258.000 Y4259.000
G1 X14196.000 Y4218.000
G1 X14133.000 Y4180.000
G1 X14067.000 Y4146.000
G1 X14000.000 Y4115.000
G1 X13932.000 Y4088.000
G1 X13862.000 Y4065.000
G1 X13790.000 Y4045.000
G1 X13718.000 Y4030.000
G1 X13645.000 Y4018.000
G1 X13572.000 Y4010.000
G1 X13462.000 Y4006.000
G1 X11920.000 Y4006.000
G1 X11091.000 Y4006.000
F150
G1 Z  -3.000
F400
G1 X11920.000 Y4006.000
G1 X13462.000 Y4006.000
G1 X13572.000 Y4010.000
G1 X13645.000 Y4018.000
G1 X13718.000 Y4030.000
G1 X13790.000 Y4045.000
G1 X13862.000 Y4065.000
G1 X13932.000 Y4088.000
G1 X14000.000 Y4115.000
G1 X14067.000 Y4146.000
G1 X14133.000 Y4180.000
G1 X14196.000 Y4218.000
G1 X14258.000 Y4259.000
G1 X14317.000 Y4303.000
G1 X14373.000 Y4351.000
G1 X14427.000 Y4401.000
G1 X14478.000 Y4455.000
G1 X14527.000 Y4510.000
G1 X14572.000 Y4569.000
G1 X14614.000 Y4630.000
G1 X14652.000 Y4692.000
G1 X14688.000 Y4757.000
G1 X14719.000 Y4824.000
G1 X14747.000 Y4892.000
G1 X14772.000 Y4962.000
G1 X14792.000 Y5033.000
G1 X14809.000 Y5105.000
G1 X14822.000 Y5178.000
G1 X14831.000 Y5251.000
G1 X14836.000 Y5325.000
G1 X14837.000 Y5398.000
G1 X14834.000 Y5472.000
G1 X14827.000 Y5546.000
G1 X14816.000 Y5619.000
G1 X14801.000 Y5691.000
G1 X14783.000 Y5762.000
G1 X14760.000 Y5833.000
G1 X14734.000 Y5902.000
G1 X14704.000 Y5969.000
G1 X14671.000 Y6035.000
G1 X14634.000 Y6099.000
G1 X14594.000 Y6161.000
G1 X14550.000 Y6221.000
G1 X14504.000 Y6278.000
G1 X14454.000 Y6332.000
G1 X14401.000 Y6384.000
G1 X14346.000 Y6433.000
G1 X14288.000 Y6479.000
G1 X14228.000 Y6522.000
G1 X14166.000 Y6561.000
G1 X14101.000 Y6598.000
G1 X14035.000 Y6630.000
G1 X13967.000 Y6659.000
G1 X13898.000 Y6684.000
G1 X13827.000 Y6706.000
G1 X13755.000 Y6723.000
G1 X13683.000 Y6737.000
G1 X13610.000 Y6747.000
G1 X13536.000 Y6753.000
G1 X13462.000 Y6755.000
G1 X9981.000 Y6755.000
F150
G1 Z   3.000
G0 Z  15.000 
M9 M5

(* SHAPE Nr: 11 *)
G0 X11091.000 Y3958.000
M3 M8
G0 Z   3.000 
G1 Z  -1.500
F400
G1 X11900.000 Y3958.000
G1 X11920.000 Y3957.000
G1 X12010.000 Y3954.000
G1 X12100.000 Y3947.000
G1 X12190.000 Y3936.000
G1 X12279.000 Y3922.000
G1 X12367.000 Y3904.000
G1 X12455.000 Y3882.000
G1 X12542.000 Y3857.000
G1 X12627.000 Y3828.000
G1 X12712.000 Y3796.000
G1 X12794.000 Y3760.000
G1 X12876.000 Y3721.000
G1 X12956.000 Y3679.000
G1 X13033.000 Y3633.000
G1 X13109.000 Y3584.000
G1 X13183.000 Y3532.000
G1 X13255.000 Y3477.000
F150
G1 Z  -3.000
F400
G1 X13183.000 Y3532.000
G1 X13109.000 Y3584.000
G1 X13033.000 Y3633.000
G1 X12956.000 Y3679.000
G1 X12876.000 Y3721.000
G1 X12794.000 Y3760.000
G1 X12712.000 Y3796.000
G1 X12627.000 Y3828.000
G1 X12542.000 Y3857.000
G1 X12455.000 Y3882.000
G1 X12367.000 Y3904.000
G1 X12279.000 Y3922.000
G1 X12190.000 Y3936.000
G1 X12100.000 Y3947.000
G1 X12010.000 Y3954.000
G1 X11920.000 Y3957.000
G1 X11900.000 Y3958.000
G1 X11091.000 Y3958.000
F150
G1 Z   3.000
G0 Z  15.000 
M9 M5

(* SHAPE Nr: 12 *)
G0 X9922.000 Y6803.000
M3 M8
G0 Z   3.000 
G1 Z  -1.500
F400
G1 X13462.000 Y6803.000
G1 X13537.000 Y6801.000
G1 X13612.000 Y6795.000
G1 X13687.000 Y6786.000
G1 X13761.000 Y6772.000
G1 X13834.000 Y6754.000
G1 X13905.000 Y6733.000
G1 X13976.000 Y6707.000
G1 X14045.000 Y6678.000
G1 X14113.000 Y6646.000
G1 X14179.000 Y6610.000
G1 X14243.000 Y6570.000
G1 X14305.000 Y6527.000
G1 X14364.000 Y6481.000
G1 X14421.000 Y6432.000
G1 X14475.000 Y6380.000
G1 X14526.000 Y6325.000
G1 X14575.000 Y6268.000
G1 X14620.000 Y6208.000
G1 X14662.000 Y6146.000
G1 X14701.000 Y6082.000
G1 X14736.000 Y6015.000
G1 X14768.000 Y5947.000
G1 X14796.000 Y5877.000
G1 X14820.000 Y5806.000
G1 X14841.000 Y5734.000
G1 X14857.000 Y5661.000
G1 X14870.000 Y5587.000
G1 X14879.000 Y5513.000
G1 X14884.000 Y5438.000
G1 X14885.000 Y5362.000
G1 X14882.000 Y5287.000
G1 X14875.000 Y5213.000
G1 X14865.000 Y5138.000
G1 X14850.000 Y5065.000
G1 X14831.000 Y4992.000
G1 X14809.000 Y4920.000
G1 X14783.000 Y4850.000
G1 X14753.000 Y4781.000
G1 X14719.000 Y4714.000
G1 X14682.000 Y4648.000
G1 X14642.000 Y4585.000
G1 X14599.000 Y4524.000
G1 X14552.000 Y4465.000
G1 X14502.000 Y4409.000
G1 X14449.000 Y4355.000
G1 X14394.000 Y4305.000
G1 X14336.000 Y4257.000
G1 X14275.000 Y4213.000
G1 X14213.000 Y4171.000
G1 X14148.000 Y4133.000
G1 X14081.000 Y4099.000
G1 X14013.000 Y4068.000
G1 X13943.000 Y4041.000
G1 X13871.000 Y4018.000
G1 X13799.000 Y3998.000
G1 X13725.000 Y3982.000
G1 X13651.000 Y3970.000
G1 X13577.000 Y3962.000
G1 X13537.000 Y3957.000
G1 X13498.000 Y3948.000
G1 X13459.000 Y3935.000
G1 X13423.000 Y3919.000
G1 X13388.000 Y3899.000
G1 X13355.000 Y3876.000
G1 X13324.000 Y3850.000
G1 X13296.000 Y3821.000
G1 X13271.000 Y3790.000
G1 X13249.000 Y3756.000
G1 X13231.000 Y3721.000
G1 X13216.000 Y3683.000
G1 X13204.000 Y3645.000
G1 X13196.000 Y3606.000
G1 X13193.000 Y3566.000
G1 X13193.000 Y3525.000
F150
G1 Z  -3.000
F400
G1 X13193.000 Y3566.000
G1 X13196.000 Y3606.000
G1 X13204.000 Y3645.000
G1 X13216.000 Y3683.000
G1 X13231.000 Y3721.000
G1 X13249.000 Y3756.000
G1 X13271.000 Y3790.000
G1 X13296.000 Y3821.000
G1 X13324.000 Y3850.000
G1 X13355.000 Y3876.000
G1 X13388.000 Y3899.000
G1 X13423.000 Y3919.000
G1 X13459.000 Y3935.000
G1 X13498.000 Y3948.000
G1 X13537.000 Y3957.000
G1 X13577.000 Y3962.000
G1 X13651.000 Y3970.000
G1 X13725.000 Y3982.000
G1 X13799.000 Y3998.000
G1 X13871.000 Y4018.000
G1 X13943.000 Y4041.000
G1 X14013.000 Y4068.000
G1 X14081.000 Y4099.000
G1 X14148.000 Y4133.000
G1 X14213.000 Y4171.000
G1 X14275.000 Y4213.000
G1 X14336.000 Y4257.000
G1 X14394.000 Y4305.000
G1 X14449.000 Y4355.000
G1 X14502.000 Y4409.000
G1 X14552.000 Y4465.000
G1 X14599.000 Y4524.000
G1 X14642.000 Y4585.000
G1 X14682.000 Y4648.000
G1 X14719.000 Y4714.000
G1 X14753.000 Y4781.000
G1 X14783.000 Y4850.000
G1 X14809.000 Y4920.000
G1 X14831.000 Y4992.000
G1 X14850.000 Y5065.000
G1 X14865.000 Y5138.000
G1 X14875.000 Y5213.000
G1 X14882.000 Y5287.000
G1 X14885.000 Y5362.000
G1 X14884.000 Y5438.000
G1 X14879.000 Y5513.000
G1 X14870.000 Y5587.000
G1 X14857.000 Y5661.000
G1 X14841.000 Y5734.000
G1 X14820.000 Y5806.000
G1 X14796.000 Y5877.000
G1 X14768.000 Y5947.000
G1 X14736.000 Y6015.000
G1 X14701.000 Y6082.000
G1 X14662.000 Y6146.000
G1 X14620.000 Y6208.000
G1 X14575.000 Y6268.000
G1 X14526.000 Y6325.000
G1 X14475.000 Y6380.000
G1 X14421.000 Y6432.000
G1 X14364.000 Y6481.000
G1 X14305.000 Y6527.000
G1 X14243.000 Y6570.000
G1 X14179.000 Y6610.000
G1 X14113.000 Y6646.000
G1 X14045.000 Y6678.000
G1 X13976.000 Y6707.000
G1 X13905.000 Y6733.000
G1 X13834.000 Y6754.000
G1 X13761.000 Y6772.000
G1 X13687.000 Y6786.000
G1 X13612.000 Y6795.000
G1 X13537.000 Y6801.000
G1 X13462.000 Y6803.000
G1 X9922.000 Y6803.000
F150
G1 Z   3.000
G0 Z  15.000 
M9 M5

(* SHAPE Nr: 13 *)
G0 X12073.000 Y3950.000
M3 M8
G0 Z   3.000 
G1 Z  -1.500
F400
G1 X13503.000 Y3950.000
F150
G1 Z  -3.000
F400
G1 X12073.000 Y3950.000
F150
G1 Z   3.000
G0 Z  15.000 
M9 M5

(* SHAPE Nr: 14 *)
G0 X12419.000 Y3950.000
M3 M8
G0 Z   3.000 
G1 Z  -1.500
F400
G1 X12511.000 Y3925.000
G1 X12602.000 Y3896.000
G1 X12692.000 Y3864.000
G1 X12781.000 Y3828.000
G1 X12867.000 Y3788.000
G1 X12952.000 Y3745.000
G1 X13035.000 Y3698.000
G1 X13116.000 Y3647.000
G1 X13195.000 Y3593.000
F150
G1 Z  -3.000
F400
G1 X13116.000 Y3647.000
G1 X13035.000 Y3698.000
G1 X12952.000 Y3745.000
G1 X12867.000 Y3788.000
G1 X12781.000 Y3828.000
G1 X12692.000 Y3864.000
G1 X12602.000 Y3896.000
G1 X12511.000 Y3925.000
G1 X12419.000 Y3950.000
F150
G1 Z   3.000
G0 Z  15.000 
M9 M5

(* SHAPE Nr: 15 *)
G0 X13143.000 Y3629.000
M3 M8
G0 Z   3.000 
G1 Z  -1.500
F400
G1 X13153.000 Y3672.000
G1 X13167.000 Y3715.000
G1 X13185.000 Y3755.000
G1 X13206.000 Y3794.000
G1 X13231.000 Y3831.000
G1 X13259.000 Y3865.000
G1 X13291.000 Y3896.000
G1 X13325.000 Y3925.000
G1 X13362.000 Y3950.000
F150
G1 Z  -3.000
F400
G1 X13325.000 Y3925.000
G1 X13291.000 Y3896.000
G1 X13259.000 Y3865.000
G1 X13231.000 Y3831.000
G1 X13206.000 Y3794.000
G1 X13185.000 Y3755.000
G1 X13167.000 Y3715.000
G1 X13153.000 Y3672.000
G1 X13143.000 Y3629.000
F150
G1 Z   3.000
G0 Z  15.000 
M9 M5

(* SHAPE Nr: 16 *)
G0 X13270.000 Y3950.000
M3 M8
G0 Z   3.000 
G1 Z  -1.500
F400
G1 X13318.000 Y3919.000
F150
G1 Z  -3.000
F400
G1 X13270.000 Y3950.000
F150
G1 Z   3.000
G0 Z  15.000 
M9 M5

(* SHAPE Nr: 17 *)
G0 X13162.000 Y3950.000
M3 M8
G0 Z   3.000 
G1 Z  -1.500
F400
G1 X13274.000 Y3880.000
F150
G1 Z  -3.000
F400
G1 X13162.000 Y3950.000
F150
G1 Z   3.000
G0 Z  15.000 
M9 M5

(* SHAPE Nr: 18 *)
G0 X13046.000 Y3950.000
M3 M8
G0 Z   3.000 
G1 Z  -1.500
F400
G1 X13143.000 Y3896.000
G1 X13236.000 Y3837.000
F150
G1 Z  -3.000
F400
G1 X13143.000 Y3896.000
G1 X13046.000 Y3950.000
F150
G1 Z   3.000
G0 Z  15.000 
M9 M5

(* SHAPE Nr: 19 *)
G0 X12921.000 Y3950.000
M3 M8
G0 Z   3.000 
G1 Z  -1.500
F400
G1 X13018.000 Y3901.000
G1 X13112.000 Y3848.000
G1 X13204.000 Y3791.000
F150
G1 Z  -3.000
F400
G1 X13112.000 Y3848.000
G1 X13018.000 Y3901.000
G1 X12921.000 Y3950.000
F150
G1 Z   3.000
G0 Z  15.000 
M9 M5

(* SHAPE Nr: 20 *)
G0 X12782.000 Y3950.000
M3 M8
G0 Z   3.000 
G1 Z  -1.500
F400
G1 X12864.000 Y3914.000
G1 X12945.000 Y3875.000
G1 X13024.000 Y3833.000
G1 X13102.000 Y3789.000
G1 X13178.000 Y3741.000
F150
G1 Z  -3.000
F400
G1 X13102.000 Y3789.000
G1 X13024.000 Y3833.000
G1 X12945.000 Y3875.000
G1 X12864.000 Y3914.000
G1 X12782.000 Y3950.000
F150
G1 Z   3.000
G0 Z  15.000 
M9 M5

(* SHAPE Nr: 21 *)
G0 X12621.000 Y3950.000
M3 M8
G0 Z   3.000 
G1 Z  -1.500
F400
G1 X12715.000 Y3916.000
G1 X12807.000 Y3878.000
G1 X12898.000 Y3836.000
G1 X12986.000 Y3790.000
G1 X13073.000 Y3741.000
G1 X13157.000 Y3687.000
F150
G1 Z  -3.000
F400
G1 X13073.000 Y3741.000
G1 X12986.000 Y3790.000
G1 X12898.000 Y3836.000
G1 X12807.000 Y3878.000
G1 X12715.000 Y3916.000
G1 X12621.000 Y3950.000
F150
G1 Z   3.000
G0 Z  15.000 
M9 M5

(* SHAPE Nr: 22 *)
G0 X9502.000 Y7085.000
M3 M8
G0 Z   3.000 
G1 Z  -1.500
F400
G1 X13462.000 Y7085.000
G1 X13544.000 Y7083.000
G1 X13625.000 Y7077.000
G1 X13706.000 Y7067.000
G1 X13786.000 Y7054.000
G1 X13866.000 Y7036.000
G1 X13945.000 Y7015.000
G1 X14022.000 Y6990.000
G1 X14099.000 Y6961.000
G1 X14174.000 Y6929.000
G1 X14247.000 Y6893.000
G1 X14318.000 Y6854.000
G1 X14388.000 Y6812.000
G1 X14455.000 Y6766.000
G1 X14520.000 Y6717.000
G1 X14583.000 Y6665.000
G1 X14643.000 Y6609.000
G1 X14700.000 Y6552.000
G1 X14755.000 Y6491.000
G1 X14807.000 Y6428.000
G1 X14855.000 Y6363.000
G1 X14901.000 Y6295.000
G1 X14943.000 Y6225.000
G1 X14981.000 Y6153.000
G1 X15017.000 Y6080.000
G1 X15048.000 Y6005.000
G1 X15076.000 Y5928.000
G1 X15101.000 Y5850.000
G1 X15121.000 Y5771.000
G1 X15138.000 Y5692.000
G1 X15151.000 Y5611.000
G1 X15160.000 Y5530.000
G1 X15165.000 Y5449.000
G1 X15167.000 Y5367.000
G1 X15164.000 Y5286.000
G1 X15158.000 Y5205.000
G1 X15147.000 Y5124.000
G1 X15133.000 Y5044.000
G1 X15115.000 Y4964.000
G1 X15093.000 Y4885.000
G1 X15068.000 Y4808.000
G1 X15038.000 Y4732.000
G1 X15006.000 Y4657.000
G1 X14969.000 Y4584.000
G1 X14930.000 Y4513.000
G1 X14886.000 Y4444.000
G1 X14840.000 Y4377.000
G1 X14790.000 Y4312.000
G1 X14738.000 Y4250.000
G1 X14682.000 Y4190.000
G1 X14624.000 Y4133.000
G1 X14563.000 Y4079.000
G1 X14500.000 Y4028.000
G1 X14434.000 Y3980.000
G1 X14366.000 Y3935.000
G1 X14296.000 Y3894.000
G1 X14224.000 Y3856.000
G1 X14150.000 Y3821.000
G1 X14074.000 Y3790.000
G1 X13998.000 Y3762.000
G1 X13920.000 Y3739.000
G1 X13841.000 Y3719.000
G1 X13761.000 Y3703.000
G1 X13680.000 Y3690.000
G1 X13599.000 Y3682.000
G1 X13576.000 Y3678.000
G1 X13553.000 Y3670.000
G1 X13532.000 Y3658.000
G1 X13514.000 Y3643.000
G1 X13499.000 Y3625.000
G1 X13487.000 Y3604.000
G1 X13478.000 Y3582.000
G1 X13474.000 Y3558.000
G1 X13474.000 Y3534.000
G1 X13478.000 Y3511.000
G1 X13486.000 Y3488.000
G1 X13498.000 Y3468.000
G1 X13513.000 Y3449.000
G1 X13531.000 Y3434.000
G1 X13552.000 Y3422.000
G1 X13619.000 Y3388.000
G1 X13685.000 Y3350.000
G1 X13748.000 Y3309.000
G1 X13810.000 Y3265.000
G1 X13869.000 Y3218.000
G1 X13925.000 Y3168.000
G1 X13979.000 Y3115.000
G1 X14029.000 Y3059.000
G1 X14077.000 Y3000.000
G1 X14122.000 Y2939.000
G1 X15681.000 Y 528.000
F150
G1 Z  -3.000
F400
G1 X14122.000 Y2939.000
G1 X14077.000 Y3000.000
G1 X14029.000 Y3059.000
G1 X13979.000 Y3115.000
G1 X13925.000 Y3168.000
G1 X13869.000 Y3218.000
G1 X13810.000 Y3265.000
G1 X13748.000 Y3309.000
G1 X13685.000 Y3350.000
G1 X13619.000 Y3388.000
G1 X13552.000 Y3422.000
G1 X13531.000 Y3434.000
G1 X13513.000 Y3449.000
G1 X13498.000 Y3468.000
G1 X13486.000 Y3488.000
G1 X13478.000 Y3511.000
G1 X13474.000 Y3534.000
G1 X13474.000 Y3558.000
G1 X13478.000 Y3582.000
G1 X13487.000 Y3604.000
G1 X13499.000 Y3625.000
G1 X13514.000 Y3643.000
G1 X13532.000 Y3658.000
G1 X13553.000 Y3670.000
G1 X13576.000 Y3678.000
G1 X13599.000 Y3682.000
G1 X13680.000 Y3690.000
G1 X13761.000 Y3703.000
G1 X13841.000 Y3719.000
G1 X13920.000 Y3739.000
G1 X13998.000 Y3762.000
G1 X14074.000 Y3790.000
G1 X14150.000 Y3821.000
G1 X14224.000 Y3856.000
G1 X14296.000 Y3894.000
G1 X14366.000 Y3935.000
G1 X14434.000 Y3980.000
G1 X14500.000 Y4028.000
G1 X14563.000 Y4079.000
G1 X14624.000 Y4133.000
G1 X14682.000 Y4190.000
G1 X14738.000 Y4250.000
G1 X14790.000 Y4312.000
G1 X14840.000 Y4377.000
G1 X14886.000 Y4444.000
G1 X14930.000 Y4513.000
G1 X14969.000 Y4584.000
G1 X15006.000 Y4657.000
G1 X15038.000 Y4732.000
G1 X15068.000 Y4808.000
G1 X15093.000 Y4885.000
G1 X15115.000 Y4964.000
G1 X15133.000 Y5044.000
G1 X15147.000 Y5124.000
G1 X15158.000 Y5205.000
G1 X15164.000 Y5286.000
G1 X15167.000 Y5367.000
G1 X15165.000 Y5449.000
G1 X15160.000 Y5530.000
G1 X15151.000 Y5611.000
G1 X15138.000 Y5692.000
G1 X15121.000 Y5771.000
G1 X15101.000 Y5850.000
G1 X15076.000 Y5928.000
G1 X15048.000 Y6005.000
G1 X15017.000 Y6080.000
G1 X14981.000 Y6153.000
G1 X14943.000 Y6225.000
G1 X14901.000 Y6295.000
G1 X14855.000 Y6363.000
G1 X14807.000 Y6428.000
G1 X14755.000 Y6491.000
G1 X14700.000 Y6552.000
G1 X14643.000 Y6609.000
G1 X14583.000 Y6665.000
G1 X14520.000 Y6717.000
G1 X14455.000 Y6766.000
G1 X14388.000 Y6812.000
G1 X14318.000 Y6854.000
G1 X14247.000 Y6893.000
G1 X14174.000 Y6929.000
G1 X14099.000 Y6961.000
G1 X14022.000 Y6990.000
G1 X13945.000 Y7015.000
G1 X13866.000 Y7036.000
G1 X13786.000 Y7054.000
G1 X13706.000 Y7067.000
G1 X13625.000 Y7077.000
G1 X13544.000 Y7083.000
G1 X13462.000 Y7085.000
G1 X9502.000 Y7085.000
F150
G1 Z   3.000
G0 Z  15.000 
M9 M5

(* SHAPE Nr: 23 *)
G0 X13292.000 Y3373.000
M3 M8
G0 Z   3.000 
G1 Z  -1.500
F400
G1 X13337.000 Y3333.000
F150
G1 Z  -3.000
F400
G1 X13292.000 Y3373.000
F150
G1 Z   3.000
G0 Z  15.000 
M9 M5

(* SHAPE Nr: 24 *)
G0 X11091.000 Y3676.000
M3 M8
G0 Z   3.000 
G1 Z  -1.500
F400
G1 X11899.000 Y3676.000
G1 X11984.000 Y3674.000
G1 X12069.000 Y3667.000
G1 X12154.000 Y3657.000
G1 X12239.000 Y3643.000
G1 X12322.000 Y3626.000
G1 X12405.000 Y3604.000
G1 X12487.000 Y3579.000
G1 X12567.000 Y3550.000
G1 X12646.000 Y3518.000
G1 X12724.000 Y3482.000
G1 X12800.000 Y3443.000
G1 X12874.000 Y3401.000
G1 X12946.000 Y3355.000
G1 X13016.000 Y3306.000
G1 X13084.000 Y3254.000
G1 X13149.000 Y3199.000
G1 X13212.000 Y3141.000
G1 X13272.000 Y3080.000
G1 X13330.000 Y3017.000
G1 X13384.000 Y2951.000
G1 X13436.000 Y2883.000
G1 X13484.000 Y2813.000
G1 X13529.000 Y2740.000
G1 X13571.000 Y2666.000
G1 X14954.000 Y 528.000
F150
G1 Z  -3.000
F400
G1 X13571.000 Y2666.000
G1 X13529.000 Y2740.000
G1 X13484.000 Y2813.000
G1 X13436.000 Y2883.000
G1 X13384.000 Y2951.000
G1 X13330.000 Y3017.000
G1 X13272.000 Y3080.000
G1 X13212.000 Y3141.000
G1 X13149.000 Y3199.000
G1 X13084.000 Y3254.000
G1 X13016.000 Y3306.000
G1 X12946.000 Y3355.000
G1 X12874.000 Y3401.000
G1 X12800.000 Y3443.000
G1 X12724.000 Y3482.000
G1 X12646.000 Y3518.000
G1 X12567.000 Y3550.000
G1 X12487.000 Y3579.000
G1 X12405.000 Y3604.000
G1 X12322.000 Y3626.000
G1 X12239.000 Y3643.000
G1 X12154.000 Y3657.000
G1 X12069.000 Y3667.000
G1 X11984.000 Y3674.000
G1 X11899.000 Y3676.000
G1 X11091.000 Y3676.000
F150
G1 Z   3.000
G0 Z  15.000 
M9 M5

(* SHAPE Nr: 25 *)
G0 X10272.000 Y6474.000
M3 M8
G0 Z   3.000 
G1 Z  -1.500
F400
G1 X13462.000 Y6474.000
G1 X13528.000 Y6472.000
G1 X13594.000 Y6466.000
G1 X13659.000 Y6456.000
G1 X13724.000 Y6442.000
G1 X13788.000 Y6424.000
G1 X13850.000 Y6403.000
G1 X13911.000 Y6377.000
G1 X13970.000 Y6348.000
G1 X14028.000 Y6316.000
G1 X14083.000 Y6280.000
G1 X14137.000 Y6241.000
G1 X14187.000 Y6199.000
G1 X14235.000 Y6154.000
G1 X14281.000 Y6105.000
G1 X14323.000 Y6055.000
G1 X14362.000 Y6001.000
G1 X14398.000 Y5946.000
G1 X14430.000 Y5889.000
G1 X14459.000 Y5829.000
G1 X14485.000 Y5768.000
G1 X14506.000 Y5706.000
G1 X14524.000 Y5642.000
G1 X14538.000 Y5578.000
G1 X14548.000 Y5512.000
G1 X14554.000 Y5446.000
G1 X14556.000 Y5380.000
G1 X14554.000 Y5314.000
G1 X14548.000 Y5249.000
G1 X14538.000 Y5183.000
G1 X14524.000 Y5119.000
G1 X14506.000 Y5055.000
G1 X14485.000 Y4993.000
G1 X14459.000 Y4932.000
G1 X14430.000 Y4872.000
G1 X14398.000 Y4815.000
G1 X14362.000 Y4759.000
G1 X14323.000 Y4706.000
G1 X14281.000 Y4655.000
G1 X14235.000 Y4607.000
G1 X14187.000 Y4562.000
G1 X14137.000 Y4520.000
G1 X14083.000 Y4481.000
G1 X14028.000 Y4445.000
G1 X13970.000 Y4412.000
G1 X13911.000 Y4383.000
G1 X13850.000 Y4358.000
G1 X13788.000 Y4337.000
G1 X13724.000 Y4319.000
G1 X13659.000 Y4305.000
G1 X13594.000 Y4295.000
G1 X13528.000 Y4289.000
G1 X13462.000 Y4287.000
G1 X11091.000 Y4287.000
F150
G1 Z  -3.000
F400
G1 X13462.000 Y4287.000
G1 X13528.000 Y4289.000
G1 X13594.000 Y4295.000
G1 X13659.000 Y4305.000
G1 X13724.000 Y4319.000
G1 X13788.000 Y4337.000
G1 X13850.000 Y4358.000
G1 X13911.000 Y4383.000
G1 X13970.000 Y4412.000
G1 X14028.000 Y4445.000
G1 X14083.000 Y4481.000
G1 X14137.000 Y4520.000
G1 X14187.000 Y4562.000
G1 X14235.000 Y4607.000
G1 X14281.000 Y4655.000
G1 X14323.000 Y4706.000
G1 X14362.000 Y4759.000
G1 X14398.000 Y4815.000
G1 X14430.000 Y4872.000
G1 X14459.000 Y4932.000
G1 X14485.000 Y4993.000
G1 X14506.000 Y5055.000
G1 X14524.000 Y5119.000
G1 X14538.000 Y5183.000
G1 X14548.000 Y5249.000
G1 X14554.000 Y5314.000
G1 X14556.000 Y5380.000
G1 X14554.000 Y5446.000
G1 X14548.000 Y5512.000
G1 X14538.000 Y5578.000
G1 X14524.000 Y5642.000
G1 X14506.000 Y5706.000
G1 X14485.000 Y5768.000
G1 X14459.000 Y5829.000
G1 X14430.000 Y5889.000
G1 X14398.000 Y5946.000
G1 X14362.000 Y6001.000
G1 X14323.000 Y6055.000
G1 X14281.000 Y6105.000
G1 X14235.000 Y6154.000
G1 X14187.000 Y6199.000
G1 X14137.000 Y6241.000
G1 X14083.000 Y6280.000
G1 X14028.000 Y6316.000
G1 X13970.000 Y6348.000
G1 X13911.000 Y6377.000
G1 X13850.000 Y6403.000
G1 X13788.000 Y6424.000
G1 X13724.000 Y6442.000
G1 X13659.000 Y6456.000
G1 X13594.000 Y6466.000
G1 X13528.000 Y6472.000
G1 X13462.000 Y6474.000
G1 X10272.000 Y6474.000
F150
G1 Z   3.000
G0 Z  15.000 
M9 M5

(* SHAPE Nr: 26 *)
G0 X10220.000 Y6530.000
M3 M8
G0 Z   3.000 
G1 Z  -1.500
F400
G1 X13462.000 Y6530.000
G1 X13529.000 Y6528.000
G1 X13596.000 Y6522.000
G1 X13662.000 Y6513.000
G1 X13727.000 Y6499.000
G1 X13792.000 Y6482.000
G1 X13856.000 Y6461.000
G1 X13918.000 Y6436.000
G1 X13978.000 Y6408.000
G1 X14037.000 Y6376.000
G1 X14094.000 Y6341.000
G1 X14149.000 Y6303.000
G1 X14201.000 Y6261.000
G1 X14251.000 Y6217.000
G1 X14299.000 Y6169.000
G1 X14343.000 Y6119.000
G1 X14384.000 Y6067.000
G1 X14423.000 Y6012.000
G1 X14458.000 Y5955.000
G1 X14490.000 Y5896.000
G1 X14518.000 Y5836.000
G1 X14543.000 Y5774.000
G1 X14564.000 Y5710.000
G1 X14581.000 Y5646.000
G1 X14594.000 Y5580.000
G1 X14604.000 Y5514.000
G1 X14610.000 Y5447.000
G1 X14612.000 Y5380.000
G1 X14610.000 Y5314.000
G1 X14604.000 Y5247.000
G1 X14594.000 Y5181.000
G1 X14581.000 Y5115.000
G1 X14564.000 Y5051.000
G1 X14543.000 Y4987.000
G1 X14518.000 Y4925.000
G1 X14490.000 Y4865.000
G1 X14458.000 Y4806.000
G1 X14423.000 Y4749.000
G1 X14384.000 Y4694.000
G1 X14343.000 Y4642.000
G1 X14299.000 Y4592.000
G1 X14251.000 Y4544.000
G1 X14201.000 Y4500.000
G1 X14149.000 Y4458.000
G1 X14094.000 Y4420.000
G1 X14037.000 Y4385.000
G1 X13978.000 Y4353.000
G1 X13918.000 Y4325.000
G1 X13856.000 Y4300.000
G1 X13792.000 Y4279.000
G1 X13727.000 Y4262.000
G1 X13662.000 Y4248.000
G1 X13596.000 Y4239.000
G1 X13529.000 Y4233.000
G1 X13462.000 Y4231.000
G1 X11091.000 Y4231.000
F150
G1 Z  -3.000
F400
G1 X13462.000 Y4231.000
G1 X13529.000 Y4233.000
G1 X13596.000 Y4239.000
G1 X13662.000 Y4248.000
G1 X13727.000 Y4262.000
G1 X13792.000 Y4279.000
G1 X13856.000 Y4300.000
G1 X13918.000 Y4325.000
G1 X13978.000 Y4353.000
G1 X14037.000 Y4385.000
G1 X14094.000 Y4420.000
G1 X14149.000 Y4458.000
G1 X14201.000 Y4500.000
G1 X14251.000 Y4544.000
G1 X14299.000 Y4592.000
G1 X14343.000 Y4642.000
G1 X14384.000 Y4694.000
G1 X14423.000 Y4749.000
G1 X14458.000 Y4806.000
G1 X14490.000 Y4865.000
G1 X14518.000 Y4925.000
G1 X14543.000 Y4987.000
G1 X14564.000 Y5051.000
G1 X14581.000 Y5115.000
G1 X14594.000 Y5181.000
G1 X14604.000 Y5247.000
G1 X14610.000 Y5314.000
G1 X14612.000 Y5380.000
G1 X14610.000 Y5447.000
G1 X14604.000 Y5514.000
G1 X14594.000 Y5580.000
G1 X14581.000 Y5646.000
G1 X14564.000 Y5710.000
G1 X14543.000 Y5774.000
G1 X14518.000 Y5836.000
G1 X14490.000 Y5896.000
G1 X14458.000 Y5955.000
G1 X14423.000 Y6012.000
G1 X14384.000 Y6067.000
G1 X14343.000 Y6119.000
G1 X14299.000 Y6169.000
G1 X14251.000 Y6217.000
G1 X14201.000 Y6261.000
G1 X14149.000 Y6303.000
G1 X14094.000 Y6341.000
G1 X14037.000 Y6376.000
G1 X13978.000 Y6408.000
G1 X13918.000 Y6436.000
G1 X13856.000 Y6461.000
G1 X13792.000 Y6482.000
G1 X13727.000 Y6499.000
G1 X13662.000 Y6513.000
G1 X13596.000 Y6522.000
G1 X13529.000 Y6528.000
G1 X13462.000 Y6530.000
G1 X10220.000 Y6530.000
F150
G1 Z   3.000
G0 Z  15.000 
M9 M5

(* SHAPE Nr: 27 *)
G0 X9599.000 Y7028.000
M3 M8
G0 Z   3.000 
G1 Z  -1.500
F400
G1 X13462.000 Y7028.000
G1 X13544.000 Y7026.000
G1 X13625.000 Y7020.000
G1 X13706.000 Y7010.000
G1 X13786.000 Y6996.000
G1 X13865.000 Y6978.000
G1 X13943.000 Y6957.000
G1 X14021.000 Y6931.000
G1 X14097.000 Y6902.000
G1 X14171.000 Y6868.000
G1 X14243.000 Y6832.000
G1 X14314.000 Y6791.000
G1 X14383.000 Y6748.000
G1 X14449.000 Y6700.000
G1 X14513.000 Y6650.000
G1 X14574.000 Y6597.000
G1 X14633.000 Y6540.000
G1 X14689.000 Y6481.000
G1 X14742.000 Y6419.000
G1 X14791.000 Y6355.000
G1 X14838.000 Y6288.000
G1 X14881.000 Y6219.000
G1 X14921.000 Y6148.000
G1 X14957.000 Y6075.000
G1 X14989.000 Y6001.000
G1 X15018.000 Y5924.000
G1 X15043.000 Y5847.000
G1 X15064.000 Y5768.000
G1 X15081.000 Y5689.000
G1 X15094.000 Y5609.000
G1 X15104.000 Y5528.000
G1 X15109.000 Y5447.000
G1 X15110.000 Y5365.000
G1 X15108.000 Y5284.000
G1 X15101.000 Y5203.000
G1 X15090.000 Y5122.000
G1 X15075.000 Y5042.000
G1 X15057.000 Y4963.000
G1 X15034.000 Y4885.000
G1 X15008.000 Y4808.000
G1 X14978.000 Y4732.000
G1 X14944.000 Y4658.000
G1 X14906.000 Y4586.000
G1 X14865.000 Y4516.000
G1 X14821.000 Y4448.000
G1 X14773.000 Y4382.000
G1 X14722.000 Y4318.000
G1 X14668.000 Y4257.000
G1 X14611.000 Y4199.000
G1 X14552.000 Y4144.000
G1 X14489.000 Y4092.000
G1 X14425.000 Y4042.000
G1 X14357.000 Y3997.000
G1 X14288.000 Y3954.000
G1 X14217.000 Y3915.000
G1 X14143.000 Y3880.000
G1 X14068.000 Y3848.000
G1 X13992.000 Y3820.000
G1 X13914.000 Y3796.000
G1 X13836.000 Y3775.000
G1 X13756.000 Y3759.000
G1 X13676.000 Y3746.000
G1 X13595.000 Y3738.000
G1 X13567.000 Y3733.000
G1 X13540.000 Y3725.000
G1 X13515.000 Y3713.000
G1 X13491.000 Y3698.000
G1 X13471.000 Y3679.000
G1 X13453.000 Y3657.000
G1 X13438.000 Y3633.000
G1 X13427.000 Y3607.000
G1 X13420.000 Y3580.000
G1 X13417.000 Y3552.000
G1 X13418.000 Y3524.000
G1 X13423.000 Y3497.000
G1 X13433.000 Y3470.000
G1 X13445.000 Y3445.000
G1 X13462.000 Y3422.000
G1 X13481.000 Y3402.000
G1 X13503.000 Y3385.000
G1 X13528.000 Y3371.000
G1 X13592.000 Y3338.000
G1 X13655.000 Y3302.000
G1 X13716.000 Y3263.000
G1 X13775.000 Y3221.000
G1 X13832.000 Y3175.000
G1 X13886.000 Y3127.000
G1 X13938.000 Y3076.000
G1 X13986.000 Y3022.000
G1 X14032.000 Y2966.000
G1 X14075.000 Y2908.000
G1 X15614.000 Y 528.000
F150
G1 Z  -3.000
F400
G1 X14075.000 Y2908.000
G1 X14032.000 Y2966.000
G1 X13986.000 Y3022.000
G1 X13938.000 Y3076.000
G1 X13886.000 Y3127.000
G1 X13832.000 Y3175.000
G1 X13775.000 Y3221.000
G1 X13716.000 Y3263.000
G1 X13655.000 Y3302.000
G1 X13592.000 Y3338.000
G1 X13528.000 Y3371.000
G1 X13503.000 Y3385.000
G1 X13481.000 Y3402.000
G1 X13462.000 Y3422.000
G1 X13445.000 Y3445.000
G1 X13433.000 Y3470.000
G1 X13423.000 Y3497.000
G1 X13418.000 Y3524.000
G1 X13417.000 Y3552.000
G1 X13420.000 Y3580.000
G1 X13427.000 Y3607.000
G1 X13438.000 Y3633.000
G1 X13453.000 Y3657.000
G1 X13471.000 Y3679.000
G1 X13491.000 Y3698.000
G1 X13515.000 Y3713.000
G1 X13540.000 Y3725.000
G1 X13567.000 Y3733.000
G1 X13595.000 Y3738.000
G1 X13676.000 Y3746.000
G1 X13756.000 Y3759.000
G1 X13836.000 Y3775.000
G1 X13914.000 Y3796.000
G1 X13992.000 Y3820.000
G1 X14068.000 Y3848.000
G1 X14143.000 Y3880.000
G1 X14217.000 Y3915.000
G1 X14288.000 Y3954.000
G1 X14357.000 Y3997.000
G1 X14425.000 Y4042.000
G1 X14489.000 Y4092.000
G1 X14552.000 Y4144.000
G1 X14611.000 Y4199.000
G1 X14668.000 Y4257.000
G1 X14722.000 Y4318.000
G1 X14773.000 Y4382.000
G1 X14821.000 Y4448.000
G1 X14865.000 Y4516.000
G1 X14906.000 Y4586.000
G1 X14944.000 Y4658.000
G1 X14978.000 Y4732.000
G1 X15008.000 Y4808.000
G1 X15034.000 Y4885.000
G1 X15057.000 Y4963.000
G1 X15075.000 Y5042.000
G1 X15090.000 Y5122.000
G1 X15101.000 Y5203.000
G1 X15108.000 Y5284.000
G1 X15110.000 Y5365.000
G1 X15109.000 Y5447.000
G1 X15104.000 Y5528.000
G1 X15094.000 Y5609.000
G1 X15081.000 Y5689.000
G1 X15064.000 Y5768.000
G1 X15043.000 Y5847.000
G1 X15018.000 Y5924.000
G1 X14989.000 Y6001.000
G1 X14957.000 Y6075.000
G1 X14921.000 Y6148.000
G1 X14881.000 Y6219.000
G1 X14838.000 Y6288.000
G1 X14791.000 Y6355.000
G1 X14742.000 Y6419.000
G1 X14689.000 Y6481.000
G1 X14633.000 Y6540.000
G1 X14574.000 Y6597.000
G1 X14513.000 Y6650.000
G1 X14449.000 Y6700.000
G1 X14383.000 Y6748.000
G1 X14314.000 Y6791.000
G1 X14243.000 Y6832.000
G1 X14171.000 Y6868.000
G1 X14097.000 Y6902.000
G1 X14021.000 Y6931.000
G1 X13943.000 Y6957.000
G1 X13865.000 Y6978.000
G1 X13786.000 Y6996.000
G1 X13706.000 Y7010.000
G1 X13625.000 Y7020.000
G1 X13544.000 Y7026.000
G1 X13462.000 Y7028.000
G1 X9599.000 Y7028.000
F150
G1 Z   3.000
G0 Z  15.000 
M9 M5

(* SHAPE Nr: 28 *)
G0 X11091.000 Y3732.000
M3 M8
G0 Z   3.000 
G1 Z  -1.500
F400
G1 X11899.000 Y3732.000
G1 X11987.000 Y3730.000
G1 X12075.000 Y3723.000
G1 X12162.000 Y3713.000
G1 X12249.000 Y3699.000
G1 X12334.000 Y3680.000
G1 X12420.000 Y3659.000
G1 X12504.000 Y3633.000
G1 X12586.000 Y3603.000
G1 X12668.000 Y3570.000
G1 X12748.000 Y3533.000
G1 X12826.000 Y3493.000
G1 X12902.000 Y3449.000
G1 X12976.000 Y3402.000
G1 X13048.000 Y3352.000
G1 X13118.000 Y3299.000
G1 X13185.000 Y3242.000
G1 X13250.000 Y3183.000
G1 X13312.000 Y3120.000
G1 X13371.000 Y3055.000
G1 X13427.000 Y2988.000
G1 X13480.000 Y2918.000
G1 X13530.000 Y2845.000
G1 X13577.000 Y2771.000
G1 X13620.000 Y2694.000
G1 X15021.000 Y 528.000
F150
G1 Z  -3.000
F400
G1 X13620.000 Y2694.000
G1 X13577.000 Y2771.000
G1 X13530.000 Y2845.000
G1 X13480.000 Y2918.000
G1 X13427.000 Y2988.000
G1 X13371.000 Y3055.000
G1 X13312.000 Y3120.000
G1 X13250.000 Y3183.000
G1 X13185.000 Y3242.000
G1 X13118.000 Y3299.000
G1 X13048.000 Y3352.000
G1 X12976.000 Y3402.000
G1 X12902.000 Y3449.000
G1 X12826.000 Y3493.000
G1 X12748.000 Y3533.000
G1 X12668.000 Y3570.000
G1 X12586.000 Y3603.000
G1 X12504.000 Y3633.000
G1 X12420.000 Y3659.000
G1 X12334.000 Y3680.000
G1 X12249.000 Y3699.000
G1 X12162.000 Y3713.000
G1 X12075.000 Y3723.000
G1 X11987.000 Y3730.000
G1 X11899.000 Y3732.000
G1 X11091.000 Y3732.000
F150
G1 Z   3.000
G0 Z  15.000 
M9 M5

(* SHAPE Nr: 29 *)
G0 X10165.000 Y6586.000
M3 M8
G0 Z   3.000 
G1 Z  -1.500
F400
G1 X13462.000 Y6586.000
G1 X13530.000 Y6584.000
G1 X13597.000 Y6579.000
G1 X13664.000 Y6569.000
G1 X13731.000 Y6556.000
G1 X13796.000 Y6539.000
G1 X13861.000 Y6519.000
G1 X13924.000 Y6494.000
G1 X13986.000 Y6467.000
G1 X14046.000 Y6436.000
G1 X14104.000 Y6401.000
G1 X14160.000 Y6364.000
G1 X14214.000 Y6323.000
G1 X14266.000 Y6280.000
G1 X14315.000 Y6233.000
G1 X14361.000 Y6184.000
G1 X14405.000 Y6132.000
G1 X14446.000 Y6078.000
G1 X14483.000 Y6022.000
G1 X14518.000 Y5964.000
G1 X14549.000 Y5904.000
G1 X14576.000 Y5842.000
G1 X14601.000 Y5779.000
G1 X14621.000 Y5714.000
G1 X14638.000 Y5649.000
G1 X14651.000 Y5582.000
G1 X14661.000 Y5515.000
G1 X14666.000 Y5448.000
G1 X14668.000 Y5380.000
G1 X14666.000 Y5313.000
G1 X14661.000 Y5245.000
G1 X14651.000 Y5178.000
G1 X14638.000 Y5112.000
G1 X14621.000 Y5047.000
G1 X14601.000 Y4982.000
G1 X14576.000 Y4919.000
G1 X14549.000 Y4857.000
G1 X14518.000 Y4797.000
G1 X14483.000 Y4739.000
G1 X14446.000 Y4683.000
G1 X14405.000 Y4629.000
G1 X14361.000 Y4577.000
G1 X14315.000 Y4528.000
G1 X14266.000 Y4481.000
G1 X14214.000 Y4438.000
G1 X14160.000 Y4397.000
G1 X14104.000 Y4359.000
G1 X14046.000 Y4325.000
G1 X13986.000 Y4294.000
G1 X13924.000 Y4266.000
G1 X13861.000 Y4242.000
G1 X13796.000 Y4222.000
G1 X13731.000 Y4205.000
G1 X13664.000 Y4192.000
G1 X13597.000 Y4182.000
G1 X13530.000 Y4177.000
G1 X13462.000 Y4175.000
G1 X11091.000 Y4175.000
F150
G1 Z  -3.000
F400
G1 X13462.000 Y4175.000
G1 X13530.000 Y4177.000
G1 X13597.000 Y4182.000
G1 X13664.000 Y4192.000
G1 X13731.000 Y4205.000
G1 X13796.000 Y4222.000
G1 X13861.000 Y4242.000
G1 X13924.000 Y4266.000
G1 X13986.000 Y4294.000
G1 X14046.000 Y4325.000
G1 X14104.000 Y4359.000
G1 X14160.000 Y4397.000
G1 X14214.000 Y4438.000
G1 X14266.000 Y4481.000
G1 X14315.000 Y4528.000
G1 X14361.000 Y4577.000
G1 X14405.000 Y4629.000
G1 X14446.000 Y4683.000
G1 X14483.000 Y4739.000
G1 X14518.000 Y4797.000
G1 X14549.000 Y4857.000
G1 X14576.000 Y4919.000
G1 X14601.000 Y4982.000
G1 X14621.000 Y5047.000
G1 X14638.000 Y5112.000
G1 X14651.000 Y5178.000
G1 X14661.000 Y5245.000
G1 X14666.000 Y5313.000
G1 X14668.000 Y5380.000
G1 X14666.000 Y5448.000
G1 X14661.000 Y5515.000
G1 X14651.000 Y5582.000
G1 X14638.000 Y5649.000
G1 X14621.000 Y5714.000
G1 X14601.000 Y5779.000
G1 X14576.000 Y5842.000
G1 X14549.000 Y5904.000
G1 X14518.000 Y5964.000
G1 X14483.000 Y6022.000
G1 X14446.000 Y6078.000
G1 X14405.000 Y6132.000
G1 X14361.000 Y6184.000
G1 X14315.000 Y6233.000
G1 X14266.000 Y6280.000
G1 X14214.000 Y6323.000
G1 X14160.000 Y6364.000
G1 X14104.000 Y6401.000
G1 X14046.000 Y6436.000
G1 X13986.000 Y6467.000
G1 X13924.000 Y6494.000
G1 X13861.000 Y6519.000
G1 X13796.000 Y6539.000
G1 X13731.000 Y6556.000
G1 X13664.000 Y6569.000
G1 X13597.000 Y6579.000
G1 X13530.000 Y6584.000
G1 X13462.000 Y6586.000
G1 X10165.000 Y6586.000
F150
G1 Z   3.000
G0 Z  15.000 
M9 M5

(* SHAPE Nr: 30 *)
G0 X9689.000 Y6972.000
M3 M8
G0 Z   3.000 
G1 Z  -1.500
F400
G1 X13462.000 Y6972.000
G1 X13541.000 Y6970.000
G1 X13619.000 Y6964.000
G1 X13697.000 Y6955.000
G1 X13775.000 Y6941.000
G1 X13851.000 Y6924.000
G1 X13927.000 Y6903.000
G1 X14002.000 Y6878.000
G1 X14075.000 Y6850.000
G1 X14147.000 Y6818.000
G1 X14217.000 Y6782.000
G1 X14285.000 Y6743.000
G1 X14351.000 Y6701.000
G1 X14415.000 Y6655.000
G1 X14477.000 Y6607.000
G1 X14536.000 Y6555.000
G1 X14593.000 Y6501.000
G1 X14647.000 Y6444.000
G1 X14698.000 Y6384.000
G1 X14746.000 Y6322.000
G1 X14791.000 Y6257.000
G1 X14833.000 Y6190.000
G1 X14871.000 Y6122.000
G1 X14906.000 Y6051.000
G1 X14937.000 Y5979.000
G1 X14965.000 Y5906.000
G1 X14989.000 Y5831.000
G1 X15009.000 Y5755.000
G1 X15026.000 Y5678.000
G1 X15039.000 Y5601.000
G1 X15048.000 Y5523.000
G1 X15053.000 Y5444.000
G1 X15054.000 Y5366.000
G1 X15051.000 Y5287.000
G1 X15045.000 Y5209.000
G1 X15034.000 Y5131.000
G1 X15020.000 Y5054.000
G1 X15002.000 Y4977.000
G1 X14980.000 Y4902.000
G1 X14955.000 Y4827.000
G1 X14926.000 Y4754.000
G1 X14893.000 Y4683.000
G1 X14857.000 Y4613.000
G1 X14817.000 Y4545.000
G1 X14775.000 Y4479.000
G1 X14728.000 Y4416.000
G1 X14679.000 Y4354.000
G1 X14627.000 Y4296.000
G1 X14572.000 Y4239.000
G1 X14515.000 Y4186.000
G1 X14454.000 Y4136.000
G1 X14392.000 Y4088.000
G1 X14327.000 Y4044.000
G1 X14260.000 Y4003.000
G1 X14191.000 Y3965.000
G1 X14120.000 Y3931.000
G1 X14048.000 Y3900.000
G1 X13974.000 Y3873.000
G1 X13899.000 Y3850.000
G1 X13823.000 Y3830.000
G1 X13746.000 Y3814.000
G1 X13668.000 Y3802.000
G1 X13590.000 Y3794.000
G1 X13561.000 Y3790.000
G1 X13532.000 Y3782.000
G1 X13504.000 Y3771.000
G1 X13478.000 Y3757.000
G1 X13454.000 Y3740.000
G1 X13432.000 Y3720.000
G1 X13413.000 Y3698.000
G1 X13396.000 Y3673.000
G1 X13382.000 Y3647.000
G1 X13372.000 Y3619.000
G1 X13365.000 Y3590.000
G1 X13361.000 Y3561.000
G1 X13361.000 Y3531.000
G1 X13365.000 Y3502.000
G1 X13372.000 Y3473.000
G1 X13382.000 Y3445.000
G1 X13396.000 Y3419.000
G1 X13412.000 Y3394.000
G1 X13432.000 Y3372.000
G1 X13453.000 Y3352.000
G1 X13478.000 Y3334.000
G1 X13504.000 Y3320.000
G1 X13566.000 Y3289.000
G1 X13626.000 Y3254.000
G1 X13684.000 Y3217.000
G1 X13741.000 Y3176.000
G1 X13795.000 Y3133.000
G1 X13847.000 Y3086.000
G1 X13896.000 Y3038.000
G1 X13943.000 Y2986.000
G1 X13987.000 Y2932.000
G1 X14029.000 Y2877.000
G1 X15547.000 Y 528.000
F150
G1 Z  -3.000
F400
G1 X14029.000 Y2877.000
G1 X13987.000 Y2932.000
G1 X13943.000 Y2986.000
G1 X13896.000 Y3038.000
G1 X13847.000 Y3086.000
G1 X13795.000 Y3133.000
G1 X13741.000 Y3176.000
G1 X13684.000 Y3217.000
G1 X13626.000 Y3254.000
G1 X13566.000 Y3289.000
G1 X13504.000 Y3320.000
G1 X13478.000 Y3334.000
G1 X13453.000 Y3352.000
G1 X13432.000 Y3372.000
G1 X13412.000 Y3394.000
G1 X13396.000 Y3419.000
G1 X13382.000 Y3445.000
G1 X13372.000 Y3473.000
G1 X13365.000 Y3502.000
G1 X13361.000 Y3531.000
G1 X13361.000 Y3561.000
G1 X13365.000 Y3590.000
G1 X13372.000 Y3619.000
G1 X13382.000 Y3647.000
G1 X13396.000 Y3673.000
G1 X13413.000 Y3698.000
G1 X13432.000 Y3720.000
G1 X13454.000 Y3740.000
G1 X13478.000 Y3757.000
G1 X13504.000 Y3771.000
G1 X13532.000 Y3782.000
G1 X13561.000 Y3790.000
G1 X13590.000 Y3794.000
G1 X13668.000 Y3802.000
G1 X13746.000 Y3814.000
G1 X13823.000 Y3830.000
G1 X13899.000 Y3850.000
G1 X13974.000 Y3873.000
G1 X14048.000 Y3900.000
G1 X14120.000 Y3931.000
G1 X14191.000 Y3965.000
G1 X14260.000 Y4003.000
G1 X14327.000 Y4044.000
G1 X14392.000 Y4088.000
G1 X14454.000 Y4136.000
G1 X14515.000 Y4186.000
G1 X14572.000 Y4239.000
G1 X14627.000 Y4296.000
G1 X14679.000 Y4354.000
G1 X14728.000 Y4416.000
G1 X14775.000 Y4479.000
G1 X14817.000 Y4545.000
G1 X14857.000 Y4613.000
G1 X14893.000 Y4683.000
G1 X14926.000 Y4754.000
G1 X14955.000 Y4827.000
G1 X14980.000 Y4902.000
G1 X15002.000 Y4977.000
G1 X15020.000 Y5054.000
G1 X15034.000 Y5131.000
G1 X15045.000 Y5209.000
G1 X15051.000 Y5287.000
G1 X15054.000 Y5366.000
G1 X15053.000 Y5444.000
G1 X15048.000 Y5523.000
G1 X15039.000 Y5601.000
G1 X15026.000 Y5678.000
G1 X15009.000 Y5755.000
G1 X14989.000 Y5831.000
G1 X14965.000 Y5906.000
G1 X14937.000 Y5979.000
G1 X14906.000 Y6051.000
G1 X14871.000 Y6122.000
G1 X14833.000 Y6190.000
G1 X14791.000 Y6257.000
G1 X14746.000 Y6322.000
G1 X14698.000 Y6384.000
G1 X14647.000 Y6444.000
G1 X14593.000 Y6501.000
G1 X14536.000 Y6555.000
G1 X14477.000 Y6607.000
G1 X14415.000 Y6655.000
G1 X14351.000 Y6701.000
G1 X14285.000 Y6743.000
G1 X14217.000 Y6782.000
G1 X14147.000 Y6818.000
G1 X14075.000 Y6850.000
G1 X14002.000 Y6878.000
G1 X13927.000 Y6903.000
G1 X13851.000 Y6924.000
G1 X13775.000 Y6941.000
G1 X13697.000 Y6955.000
G1 X13619.000 Y6964.000
G1 X13541.000 Y6970.000
G1 X13462.000 Y6972.000
G1 X9689.000 Y6972.000
F150
G1 Z   3.000
G0 Z  15.000 
M9 M5

(* SHAPE Nr: 31 *)
G0 X11091.000 Y3789.000
M3 M8
G0 Z   3.000 
G1 Z  -1.500
F400
G1 X11899.000 Y3789.000
G1 X11986.000 Y3786.000
G1 X12072.000 Y3780.000
G1 X12159.000 Y3770.000
G1 X12244.000 Y3757.000
G1 X12329.000 Y3739.000
G1 X12413.000 Y3719.000
G1 X12496.000 Y3694.000
G1 X12579.000 Y3666.000
G1 X12659.000 Y3635.000
G1 X12739.000 Y3600.000
G1 X12816.000 Y3562.000
G1 X12893.000 Y3520.000
G1 X12967.000 Y3476.000
G1 X13039.000 Y3428.000
G1 X13109.000 Y3377.000
G1 X13177.000 Y3323.000
G1 X13243.000 Y3266.000
G1 X13306.000 Y3207.000
G1 X13366.000 Y3145.000
G1 X13424.000 Y3080.000
G1 X13479.000 Y3013.000
G1 X13531.000 Y2943.000
G1 X13580.000 Y2872.000
G1 X13626.000 Y2798.000
G1 X13668.000 Y2723.000
G1 X15088.000 Y 528.000
F150
G1 Z  -3.000
F400
G1 X13668.000 Y2723.000
G1 X13626.000 Y2798.000
G1 X13580.000 Y2872.000
G1 X13531.000 Y2943.000
G1 X13479.000 Y3013.000
G1 X13424.000 Y3080.000
G1 X13366.000 Y3145.000
G1 X13306.000 Y3207.000
G1 X13243.000 Y3266.000
G1 X13177.000 Y3323.000
G1 X13109.000 Y3377.000
G1 X13039.000 Y3428.000
G1 X12967.000 Y3476.000
G1 X12893.000 Y3520.000
G1 X12816.000 Y3562.000
G1 X12739.000 Y3600.000
G1 X12659.000 Y3635.000
G1 X12579.000 Y3666.000
G1 X12496.000 Y3694.000
G1 X12413.000 Y3719.000
G1 X12329.000 Y3739.000
G1 X12244.000 Y3757.000
G1 X12159.000 Y3770.000
G1 X12072.000 Y3780.000
G1 X11986.000 Y3786.000
G1 X11899.000 Y3789.000
G1 X11091.000 Y3789.000
F150
G1 Z   3.000
G0 Z  15.000 
M9 M5

(* SHAPE Nr: 32 *)
G0 X15289.000 Y 528.000
M3 M8
G0 Z   3.000 
G1 Z  -1.500
F400
G1 X13814.000 Y2809.000
G1 X13762.000 Y2899.000
G1 X13707.000 Y2986.000
F150
G1 Z  -3.000
F400
G1 X13762.000 Y2899.000
G1 X13814.000 Y2809.000
G1 X15289.000 Y 528.000
F150
G1 Z   3.000
G0 Z  15.000 
M9 M5

(* SHAPE Nr: 33 *)
G0 X3366.000 Y 528.000
M3 M8
G0 Z   3.000 
G1 Z  -1.500
F400
G1 X5268.000 Y5799.000
G1 X5292.000 Y5860.000
G1 X5321.000 Y5920.000
G1 X5353.000 Y5977.000
G1 X5388.000 Y6033.000
G1 X5427.000 Y6086.000
G1 X5470.000 Y6136.000
G1 X5515.000 Y6183.000
G1 X5564.000 Y6228.000
G1 X5615.000 Y6269.000
G1 X5669.000 Y6307.000
G1 X5725.000 Y6341.000
G1 X5783.000 Y6372.000
G1 X5843.000 Y6398.000
G1 X5905.000 Y6421.000
G1 X5968.000 Y6440.000
G1 X6032.000 Y6455.000
G1 X6097.000 Y6465.000
G1 X6163.000 Y6472.000
G1 X6229.000 Y6474.000
G1 X8040.000 Y6474.000
G1 X8129.000 Y6472.000
G1 X8217.000 Y6466.000
G1 X8304.000 Y6457.000
G1 X8391.000 Y6443.000
G1 X8478.000 Y6426.000
G1 X8564.000 Y6405.000
G1 X8648.000 Y6381.000
G1 X8732.000 Y6352.000
G1 X8814.000 Y6321.000
G1 X8895.000 Y6285.000
G1 X8974.000 Y6246.000
G1 X9051.000 Y6204.000
G1 X9127.000 Y6158.000
G1 X9200.000 Y6109.000
G1 X9271.000 Y6057.000
G1 X9340.000 Y6002.000
G1 X9406.000 Y5944.000
G1 X9470.000 Y5883.000
G1 X9531.000 Y5819.000
G1 X9589.000 Y5753.000
G1 X9645.000 Y5684.000
G1 X9697.000 Y5613.000
G1 X9746.000 Y5540.000
G1 X9792.000 Y5464.000
G1 X9834.000 Y5387.000
G1 X9873.000 Y5308.000
G1 X9909.000 Y5227.000
G1 X9941.000 Y5145.000
G1 X9969.000 Y5061.000
G1 X9994.000 Y4977.000
G1 X10015.000 Y4891.000
G1 X10032.000 Y4804.000
G1 X10045.000 Y4717.000
G1 X10055.000 Y4630.000
G1 X10072.000 Y4471.000
G1 X10085.000 Y4312.000
G1 X10094.000 Y4153.000
G1 X10100.000 Y3994.000
G1 X10102.000 Y3835.000
G1 X10100.000 Y3675.000
G1 X10094.000 Y3516.000
G1 X10085.000 Y3357.000
G1 X10072.000 Y3198.000
G1 X10055.000 Y3039.000
G1 X10045.000 Y2952.000
G1 X10032.000 Y2865.000
G1 X10015.000 Y2778.000
G1 X9994.000 Y2692.000
G1 X9969.000 Y2608.000
G1 X9941.000 Y2524.000
G1 X9909.000 Y2442.000
G1 X9873.000 Y2361.000
G1 X9834.000 Y2282.000
G1 X9792.000 Y2205.000
G1 X9746.000 Y2129.000
G1 X9697.000 Y2056.000
G1 X9645.000 Y1985.000
G1 X9589.000 Y1916.000
G1 X9531.000 Y1850.000
G1 X9470.000 Y1786.000
G1 X9406.000 Y1725.000
G1 X9340.000 Y1667.000
G1 X9271.000 Y1612.000
G1 X9200.000 Y1560.000
G1 X9127.000 Y1511.000
G1 X9051.000 Y1465.000
G1 X8974.000 Y1423.000
G1 X8895.000 Y1384.000
G1 X8814.000 Y1348.000
G1 X8732.000 Y1317.000
G1 X8648.000 Y1288.000
G1 X8564.000 Y1264.000
G1 X8478.000 Y1243.000
G1 X8391.000 Y1226.000
G1 X8304.000 Y1212.000
G1 X8217.000 Y1203.000
G1 X8129.000 Y1197.000
G1 X8040.000 Y1195.000
G1 X5609.000 Y1195.000
F150
G1 Z  -3.000
F400
G1 X8040.000 Y1195.000
G1 X8129.000 Y1197.000
G1 X8217.000 Y1203.000
G1 X8304.000 Y1212.000
G1 X8391.000 Y1226.000
G1 X8478.000 Y1243.000
G1 X8564.000 Y1264.000
G1 X8648.000 Y1288.000
G1 X8732.000 Y1317.000
G1 X8814.000 Y1348.000
G1 X8895.000 Y1384.000
G1 X8974.000 Y1423.000
G1 X9051.000 Y1465.000
G1 X9127.000 Y1511.000
G1 X9200.000 Y1560.000
G1 X9271.000 Y1612.000
G1 X9340.000 Y1667.000
G1 X9406.000 Y1725.000
G1 X9470.000 Y1786.000
G1 X9531.000 Y1850.000
G1 X9589.000 Y1916.000
G1 X9645.000 Y1985.000
G1 X9697.000 Y2056.000
G1 X9746.000 Y2129.000
G1 X9792.000 Y2205.000
G1 X9834.000 Y2282.000
G1 X9873.000 Y2361.000
G1 X9909.000 Y2442.000
G1 X9941.000 Y2524.000
G1 X9969.000 Y2608.000
G1 X9994.000 Y2692.000
G1 X10015.000 Y2778.000
G1 X10032.000 Y2865.000
G1 X10045.000 Y2952.000
G1 X10055.000 Y3039.000
G1 X10072.000 Y3198.000
G1 X10085.000 Y3357.000
G1 X10094.000 Y3516.000
G1 X10100.000 Y3675.000
G1 X10102.000 Y3835.000
G1 X10100.000 Y3994.000
G1 X10094.000 Y4153.000
G1 X10085.000 Y4312.000
G1 X10072.000 Y4471.000
G1 X10055.000 Y4630.000
G1 X10045.000 Y4717.000
G1 X10032.000 Y4804.000
G1 X10015.000 Y4891.000
G1 X9994.000 Y4977.000
G1 X9969.000 Y5061.000
G1 X9941.000 Y5145.000
G1 X9909.000 Y5227.000
G1 X9873.000 Y5308.000
G1 X9834.000 Y5387.000
G1 X9792.000 Y5464.000
G1 X9746.000 Y5540.000
G1 X9697.000 Y5613.000
G1 X9645.000 Y5684.000
G1 X9589.000 Y5753.000
G1 X9531.000 Y5819.000
G1 X9470.000 Y5883.000
G1 X9406.000 Y5944.000
G1 X9340.000 Y6002.000
G1 X9271.000 Y6057.000
G1 X9200.000 Y6109.000
G1 X9127.000 Y6158.000
G1 X9051.000 Y6204.000
G1 X8974.000 Y6246.000
G1 X8895.000 Y6285.000
G1 X8814.000 Y6321.000
G1 X8732.000 Y6352.000
G1 X8648.000 Y6381.000
G1 X8564.000 Y6405.000
G1 X8478.000 Y6426.000
G1 X8391.000 Y6443.000
G1 X8304.000 Y6457.000
G1 X8217.000 Y6466.000
G1 X8129.000 Y6472.000
G1 X8040.000 Y6474.000
G1 X6229.000 Y6474.000
G1 X6163.000 Y6472.000
G1 X6097.000 Y6465.000
G1 X6032.000 Y6455.000
G1 X5968.000 Y6440.000
G1 X5905.000 Y6421.000
G1 X5843.000 Y6398.000
G1 X5783.000 Y6372.000
G1 X5725.000 Y6341.000
G1 X5669.000 Y6307.000
G1 X5615.000 Y6269.000
G1 X5564.000 Y6228.000
G1 X5515.000 Y6183.000
G1 X5470.000 Y6136.000
G1 X5427.000 Y6086.000
G1 X5388.000 Y6033.000
G1 X5353.000 Y5977.000
G1 X5321.000 Y5920.000
G1 X5292.000 Y5860.000
G1 X5268.000 Y5799.000
G1 X3366.000 Y 528.000
F150
G1 Z   3.000
G0 Z  15.000 
M9 M5

(* SHAPE Nr: 34 *)
G0 X6276.000 Y6096.000
M3 M8
G0 Z   3.000 
G1 Z  -1.500
F400
G1 X6276.000 Y1252.000
F150
G1 Z  -3.000
F400
G1 X6276.000 Y6096.000
F150
G1 Z   3.000
G0 Z  15.000 
M9 M5

(* SHAPE Nr: 35 *)
G0 X6107.000 Y6084.000
M3 M8
G0 Z   3.000 
G1 Z  -1.500
F400
G1 X6107.000 Y1252.000
F150
G1 Z  -3.000
F400
G1 X6107.000 Y6084.000
F150
G1 Z   3.000
G0 Z  15.000 
M9 M5

(* SHAPE Nr: 36 *)
G0 X5834.000 Y5960.000
M3 M8
G0 Z   3.000 
G1 Z  -1.500
F400
G1 X5834.000 Y1252.000
F150
G1 Z  -3.000
F400
G1 X5834.000 Y5960.000
F150
G1 Z   3.000
G0 Z  15.000 
M9 M5

(* SHAPE Nr: 37 *)
G0 X5665.000 Y5763.000
M3 M8
G0 Z   3.000 
G1 Z  -1.500
F400
G1 X5665.000 Y1252.000
F150
G1 Z  -3.000
F400
G1 X5665.000 Y5763.000
F150
G1 Z   3.000
G0 Z  15.000 
M9 M5

(* SHAPE Nr: 38 *)
G0 X3017.000 Y1340.000
M3 M8
G0 Z   3.000 
G1 Z  -1.500
F400
G1 X4699.000 Y6021.000
G1 X4728.000 Y6094.000
G1 X4761.000 Y6166.000
G1 X4797.000 Y6237.000
G1 X4837.000 Y6306.000
G1 X4880.000 Y6372.000
G1 X4926.000 Y6437.000
G1 X4976.000 Y6499.000
G1 X5028.000 Y6558.000
G1 X5083.000 Y6615.000
G1 X5141.000 Y6670.000
G1 X5202.000 Y6721.000
G1 X5264.000 Y6769.000
G1 X5330.000 Y6815.000
G1 X5397.000 Y6857.000
G1 X5466.000 Y6896.000
G1 X5537.000 Y6931.000
G1 X5610.000 Y6963.000
G1 X5684.000 Y6991.000
G1 X5759.000 Y7016.000
G1 X5836.000 Y7037.000
G1 X5913.000 Y7054.000
G1 X5991.000 Y7067.000
G1 X6070.000 Y7077.000
G1 X6149.000 Y7083.000
G1 X6229.000 Y7085.000
G1 X8040.000 Y7085.000
G1 X8140.000 Y7083.000
G1 X8240.000 Y7077.000
G1 X8340.000 Y7068.000
G1 X8440.000 Y7055.000
G1 X8538.000 Y7038.000
G1 X8637.000 Y7017.000
G1 X8734.000 Y6992.000
G1 X8830.000 Y6964.000
G1 X8925.000 Y6932.000
G1 X9019.000 Y6897.000
G1 X9111.000 Y6858.000
G1 X9202.000 Y6815.000
G1 X9291.000 Y6769.000
G1 X9379.000 Y6720.000
G1 X9464.000 Y6668.000
G1 X9547.000 Y6612.000
G1 X9628.000 Y6553.000
G1 X9707.000 Y6491.000
G1 X9784.000 Y6426.000
G1 X9858.000 Y6358.000
G1 X9929.000 Y6288.000
G1 X9997.000 Y6215.000
G1 X10063.000 Y6139.000
G1 X10126.000 Y6061.000
G1 X10185.000 Y5980.000
G1 X10242.000 Y5897.000
G1 X10295.000 Y5812.000
G1 X10346.000 Y5726.000
G1 X10392.000 Y5637.000
G1 X10436.000 Y5546.000
G1 X10476.000 Y5454.000
G1 X10512.000 Y5361.000
G1 X10545.000 Y5266.000
G1 X10574.000 Y5170.000
G1 X10599.000 Y5073.000
G1 X10621.000 Y4975.000
G1 X10639.000 Y4877.000
G1 X10653.000 Y4778.000
G1 X10664.000 Y4678.000
G1 X10681.000 Y4510.000
G1 X10695.000 Y4341.000
G1 X10705.000 Y4172.000
G1 X10711.000 Y4004.000
G1 X10713.000 Y3835.000
G1 X10711.000 Y3665.000
G1 X10705.000 Y3497.000
G1 X10695.000 Y3328.000
G1 X10681.000 Y3159.000
G1 X10664.000 Y2991.000
G1 X10653.000 Y2891.000
G1 X10639.000 Y2792.000
G1 X10621.000 Y2694.000
G1 X10599.000 Y2596.000
G1 X10574.000 Y2499.000
G1 X10545.000 Y2403.000
G1 X10512.000 Y2308.000
G1 X10476.000 Y2214.000
G1 X10436.000 Y2122.000
G1 X10392.000 Y2032.000
G1 X10345.000 Y1943.000
G1 X10295.000 Y1857.000
G1 X10242.000 Y1772.000
G1 X10185.000 Y1689.000
G1 X10126.000 Y1608.000
G1 X10063.000 Y1530.000
G1 X9997.000 Y1454.000
G1 X9929.000 Y1381.000
G1 X9857.000 Y1311.000
G1 X9783.000 Y1243.000
G1 X9707.000 Y1178.000
G1 X9628.000 Y1116.000
G1 X9547.000 Y1057.000
G1 X9464.000 Y1001.000
G1 X9378.000 Y 949.000
G1 X9291.000 Y 899.000
G1 X9202.000 Y 853.000
G1 X9111.000 Y 811.000
G1 X9018.000 Y 772.000
G1 X8925.000 Y 737.000
G1 X8830.000 Y 705.000
G1 X8733.000 Y 677.000
G1 X8636.000 Y 652.000
G1 X8538.000 Y 631.000
G1 X8439.000 Y 614.000
G1 X8340.000 Y 601.000
G1 X8240.000 Y 592.000
G1 X8140.000 Y 586.000
G1 X8040.000 Y 584.000
G1 X5609.000 Y 584.000
F150
G1 Z  -3.000
F400
G1 X8040.000 Y 584.000
G1 X8140.000 Y 586.000
G1 X8240.000 Y 592.000
G1 X8340.000 Y 601.000
G1 X8439.000 Y 614.000
G1 X8538.000 Y 631.000
G1 X8636.000 Y 652.000
G1 X8733.000 Y 677.000
G1 X8830.000 Y 705.000
G1 X8925.000 Y 737.000
G1 X9018.000 Y 772.000
G1 X9111.000 Y 811.000
G1 X9202.000 Y 853.000
G1 X9291.000 Y 899.000
G1 X9378.000 Y 949.000
G1 X9464.000 Y1001.000
G1 X9547.000 Y1057.000
G1 X9628.000 Y1116.000
G1 X9707.000 Y1178.000
G1 X9783.000 Y1243.000
G1 X9857.000 Y1311.000
G1 X9929.000 Y1381.000
G1 X9997.000 Y1454.000
G1 X10063.000 Y1530.000
G1 X10126.000 Y1608.000
G1 X10185.000 Y1689.000
G1 X10242.000 Y1772.000
G1 X10295.000 Y1857.000
G1 X10345.000 Y1943.000
G1 X10392.000 Y2032.000
G1 X10436.000 Y2122.000
G1 X10476.000 Y2214.000
G1 X10512.000 Y2308.000
G1 X10545.000 Y2403.000
G1 X10574.000 Y2499.000
G1 X10599.000 Y2596.000
G1 X10621.000 Y2694.000
G1 X10639.000 Y2792.000
G1 X10653.000 Y2891.000
G1 X10664.000 Y2991.000
G1 X10681.000 Y3159.000
G1 X10695.000 Y3328.000
G1 X10705.000 Y3497.000
G1 X10711.000 Y3665.000
G1 X10713.000 Y3835.000
G1 X10711.000 Y4004.000
G1 X10705.000 Y4172.000
G1 X10695.000 Y4341.000
G1 X10681.000 Y4510.000
G1 X10664.000 Y4678.000
G1 X10653.000 Y4778.000
G1 X10639.000 Y4877.000
G1 X10621.000 Y4975.000
G1 X10599.000 Y5073.000
G1 X10574.000 Y5170.000
G1 X10545.000 Y5266.000
G1 X10512.000 Y5361.000
G1 X10476.000 Y5454.000
G1 X10436.000 Y5546.000
G1 X10392.000 Y5637.000
G1 X10346.000 Y5726.000
G1 X10295.000 Y5812.000
G1 X10242.000 Y5897.000
G1 X10185.000 Y5980.000
G1 X10126.000 Y6061.000
G1 X10063.000 Y6139.000
G1 X9997.000 Y6215.000
G1 X9929.000 Y6288.000
G1 X9858.000 Y6358.000
G1 X9784.000 Y6426.000
G1 X9707.000 Y6491.000
G1 X9628.000 Y6553.000
G1 X9547.000 Y6612.000
G1 X9464.000 Y6668.000
G1 X9379.000 Y6720.000
G1 X9291.000 Y6769.000
G1 X9202.000 Y6815.000
G1 X9111.000 Y6858.000
G1 X9019.000 Y6897.000
G1 X8925.000 Y6932.000
G1 X8830.000 Y6964.000
G1 X8734.000 Y6992.000
G1 X8637.000 Y7017.000
G1 X8538.000 Y7038.000
G1 X8440.000 Y7055.000
G1 X8340.000 Y7068.000
G1 X8240.000 Y7077.000
G1 X8140.000 Y7083.000
G1 X8040.000 Y7085.000
G1 X6229.000 Y7085.000
G1 X6149.000 Y7083.000
G1 X6070.000 Y7077.000
G1 X5991.000 Y7067.000
G1 X5913.000 Y7054.000
G1 X5836.000 Y7037.000
G1 X5759.000 Y7016.000
G1 X5684.000 Y6991.000
G1 X5610.000 Y6963.000
G1 X5537.000 Y6931.000
G1 X5466.000 Y6896.000
G1 X5397.000 Y6857.000
G1 X5330.000 Y6815.000
G1 X5264.000 Y6769.000
G1 X5202.000 Y6721.000
G1 X5141.000 Y6670.000
G1 X5083.000 Y6615.000
G1 X5028.000 Y6558.000
G1 X4976.000 Y6499.000
G1 X4926.000 Y6437.000
G1 X4880.000 Y6372.000
G1 X4837.000 Y6306.000
G1 X4797.000 Y6237.000
G1 X4761.000 Y6166.000
G1 X4728.000 Y6094.000
G1 X4699.000 Y6021.000
G1 X3017.000 Y1340.000
F150
G1 Z   3.000
G0 Z  15.000 
M9 M5

(* SHAPE Nr: 39 *)
G0 X 730.000 Y7141.000
M3 M8
G0 Z   3.000 
G1 Z  -1.500
F400
G1 X3268.000 Y 528.000
F150
G1 Z  -3.000
F400
G1 X 730.000 Y7141.000
F150
G1 Z   3.000
G0 Z  15.000 
M9 M5

(* SHAPE Nr: 40 *)
G0 X  73.000 Y7141.000
M3 M8
G0 Z   3.000 
G1 Z  -1.500
F400
G1 X2621.000 Y 528.000
F150
G1 Z  -3.000
F400
G1 X  73.000 Y7141.000
F150
G1 Z   3.000
G0 Z  15.000 
M9 M5

(* SHAPE Nr: 41 *)
G0 X3317.000 Y 558.000
M3 M8
G0 Z   3.000 
G1 Z  -1.500
F400
G1 X5215.000 Y5818.000
G1 X5240.000 Y5880.000
G1 X5267.000 Y5939.000
G1 X5299.000 Y5997.000
G1 X5334.000 Y6053.000
G1 X5373.000 Y6107.000
G1 X5414.000 Y6158.000
G1 X5459.000 Y6206.000
G1 X5506.000 Y6252.000
G1 X5557.000 Y6295.000
G1 X5609.000 Y6334.000
G1 X5665.000 Y6371.000
G1 X5722.000 Y6403.000
G1 X5781.000 Y6433.000
G1 X5842.000 Y6458.000
G1 X5904.000 Y6480.000
G1 X5967.000 Y6498.000
G1 X6032.000 Y6512.000
G1 X6097.000 Y6522.000
G1 X6163.000 Y6528.000
G1 X6229.000 Y6530.000
G1 X8040.000 Y6530.000
G1 X8131.000 Y6528.000
G1 X8221.000 Y6522.000
G1 X8311.000 Y6512.000
G1 X8401.000 Y6499.000
G1 X8490.000 Y6481.000
G1 X8578.000 Y6460.000
G1 X8665.000 Y6434.000
G1 X8751.000 Y6405.000
G1 X8835.000 Y6373.000
G1 X8918.000 Y6336.000
G1 X9000.000 Y6296.000
G1 X9079.000 Y6253.000
G1 X9157.000 Y6206.000
G1 X9232.000 Y6155.000
G1 X9305.000 Y6102.000
G1 X9376.000 Y6045.000
G1 X9444.000 Y5985.000
G1 X9510.000 Y5923.000
G1 X9572.000 Y5857.000
G1 X9632.000 Y5789.000
G1 X9689.000 Y5719.000
G1 X9743.000 Y5646.000
G1 X9793.000 Y5570.000
G1 X9840.000 Y5493.000
G1 X9884.000 Y5413.000
G1 X9924.000 Y5332.000
G1 X9960.000 Y5249.000
G1 X9993.000 Y5165.000
G1 X10022.000 Y5079.000
G1 X10048.000 Y4992.000
G1 X10069.000 Y4904.000
G1 X10087.000 Y4815.000
G1 X10101.000 Y4725.000
G1 X10111.000 Y4635.000
G1 X10128.000 Y4476.000
G1 X10141.000 Y4316.000
G1 X10151.000 Y4155.000
G1 X10156.000 Y3995.000
G1 X10158.000 Y3835.000
G1 X10156.000 Y3674.000
G1 X10151.000 Y3514.000
G1 X10141.000 Y3353.000
G1 X10128.000 Y3193.000
G1 X10111.000 Y3034.000
G1 X10101.000 Y2944.000
G1 X10087.000 Y2854.000
G1 X10069.000 Y2765.000
G1 X10048.000 Y2677.000
G1 X10022.000 Y2590.000
G1 X9993.000 Y2504.000
G1 X9960.000 Y2420.000
G1 X9924.000 Y2337.000
G1 X9884.000 Y2256.000
G1 X9840.000 Y2176.000
G1 X9793.000 Y2099.000
G1 X9743.000 Y2023.000
G1 X9689.000 Y1950.000
G1 X9632.000 Y1880.000
G1 X9572.000 Y1812.000
G1 X9510.000 Y1746.000
G1 X9444.000 Y1684.000
G1 X9376.000 Y1624.000
G1 X9305.000 Y1567.000
G1 X9232.000 Y1514.000
G1 X9157.000 Y1463.000
G1 X9079.000 Y1416.000
G1 X9000.000 Y1373.000
G1 X8918.000 Y1333.000
G1 X8835.000 Y1296.000
G1 X8751.000 Y1264.000
G1 X8665.000 Y1235.000
G1 X8578.000 Y1209.000
G1 X8490.000 Y1188.000
G1 X8401.000 Y1170.000
G1 X8311.000 Y1157.000
G1 X8221.000 Y1147.000
G1 X8131.000 Y1141.000
G1 X8040.000 Y1139.000
G1 X5609.000 Y1139.000
F150
G1 Z  -3.000
F400
G1 X8040.000 Y1139.000
G1 X8131.000 Y1141.000
G1 X8221.000 Y1147.000
G1 X8311.000 Y1157.000
G1 X8401.000 Y1170.000
G1 X8490.000 Y1188.000
G1 X8578.000 Y1209.000
G1 X8665.000 Y1235.000
G1 X8751.000 Y1264.000
G1 X8835.000 Y1296.000
G1 X8918.000 Y1333.000
G1 X9000.000 Y1373.000
G1 X9079.000 Y1416.000
G1 X9157.000 Y1463.000
G1 X9232.000 Y1514.000
G1 X9305.000 Y1567.000
G1 X9376.000 Y1624.000
G1 X9444.000 Y1684.000
G1 X9510.000 Y1746.000
G1 X9572.000 Y1812.000
G1 X9632.000 Y1880.000
G1 X9689.000 Y1950.000
G1 X9743.000 Y2023.000
G1 X9793.000 Y2099.000
G1 X9840.000 Y2176.000
G1 X9884.000 Y2256.000
G1 X9924.000 Y2337.000
G1 X9960.000 Y2420.000
G1 X9993.000 Y2504.000
G1 X10022.000 Y2590.000
G1 X10048.000 Y2677.000
G1 X10069.000 Y2765.000
G1 X10087.000 Y2854.000
G1 X10101.000 Y2944.000
G1 X10111.000 Y3034.000
G1 X10128.000 Y3193.000
G1 X10141.000 Y3353.000
G1 X10151.000 Y3514.000
G1 X10156.000 Y3674.000
G1 X10158.000 Y3835.000
G1 X10156.000 Y3995.000
G1 X10151.000 Y4155.000
G1 X10141.000 Y4316.000
G1 X10128.000 Y4476.000
G1 X10111.000 Y4635.000
G1 X10101.000 Y4725.000
G1 X10087.000 Y4815.000
G1 X10069.000 Y4904.000
G1 X10048.000 Y4992.000
G1 X10022.000 Y5079.000
G1 X9993.000 Y5165.000
G1 X9960.000 Y5249.000
G1 X9924.000 Y5332.000
G1 X9884.000 Y5413.000
G1 X9840.000 Y5493.000
G1 X9793.000 Y5570.000
G1 X9743.000 Y5646.000
G1 X9689.000 Y5719.000
G1 X9632.000 Y5789.000
G1 X9572.000 Y5857.000
G1 X9510.000 Y5923.000
G1 X9444.000 Y5985.000
G1 X9376.000 Y6045.000
G1 X9305.000 Y6102.000
G1 X9232.000 Y6155.000
G1 X9157.000 Y6206.000
G1 X9079.000 Y6253.000
G1 X9000.000 Y6296.000
G1 X8918.000 Y6336.000
G1 X8835.000 Y6373.000
G1 X8751.000 Y6405.000
G1 X8665.000 Y6434.000
G1 X8578.000 Y6460.000
G1 X8490.000 Y6481.000
G1 X8401.000 Y6499.000
G1 X8311.000 Y6512.000
G1 X8221.000 Y6522.000
G1 X8131.000 Y6528.000
G1 X8040.000 Y6530.000
G1 X6229.000 Y6530.000
G1 X6163.000 Y6528.000
G1 X6097.000 Y6522.000
G1 X6032.000 Y6512.000
G1 X5967.000 Y6498.000
G1 X5904.000 Y6480.000
G1 X5842.000 Y6458.000
G1 X5781.000 Y6433.000
G1 X5722.000 Y6403.000
G1 X5665.000 Y6371.000
G1 X5609.000 Y6334.000
G1 X5557.000 Y6295.000
G1 X5506.000 Y6252.000
G1 X5459.000 Y6206.000
G1 X5414.000 Y6158.000
G1 X5373.000 Y6107.000
G1 X5334.000 Y6053.000
G1 X5299.000 Y5997.000
G1 X5267.000 Y5939.000
G1 X5240.000 Y5880.000
G1 X5215.000 Y5818.000
G1 X3317.000 Y 558.000
F150
G1 Z   3.000
G0 Z  15.000 
M9 M5

(* SHAPE Nr: 42 *)
G0 X5721.000 Y5848.000
M3 M8
G0 Z   3.000 
G1 Z  -1.500
F400
G1 X5721.000 Y1252.000
F150
G1 Z  -3.000
F400
G1 X5721.000 Y5848.000
F150
G1 Z   3.000
G0 Z  15.000 
M9 M5

(* SHAPE Nr: 43 *)
G0 X6220.000 Y6096.000
M3 M8
G0 Z   3.000 
G1 Z  -1.500
F400
G1 X6220.000 Y1252.000
F150
G1 Z  -3.000
F400
G1 X6220.000 Y6096.000
F150
G1 Z   3.000
G0 Z  15.000 
M9 M5

(* SHAPE Nr: 44 *)
G0 X3048.000 Y1260.000
M3 M8
G0 Z   3.000 
G1 Z  -1.500
F400
G1 X4751.000 Y6001.000
G1 X4781.000 Y6075.000
G1 X4814.000 Y6148.000
G1 X4851.000 Y6218.000
G1 X4892.000 Y6287.000
G1 X4936.000 Y6354.000
G1 X4983.000 Y6418.000
G1 X5034.000 Y6480.000
G1 X5087.000 Y6539.000
G1 X5144.000 Y6595.000
G1 X5203.000 Y6649.000
G1 X5265.000 Y6699.000
G1 X5329.000 Y6746.000
G1 X5396.000 Y6790.000
G1 X5464.000 Y6831.000
G1 X5535.000 Y6868.000
G1 X5608.000 Y6901.000
G1 X5682.000 Y6930.000
G1 X5757.000 Y6956.000
G1 X5834.000 Y6978.000
G1 X5912.000 Y6996.000
G1 X5990.000 Y7010.000
G1 X6069.000 Y7020.000
G1 X6149.000 Y7026.000
G1 X6229.000 Y7028.000
G1 X8040.000 Y7028.000
G1 X8141.000 Y7027.000
G1 X8241.000 Y7021.000
G1 X8342.000 Y7011.000
G1 X8441.000 Y6997.000
G1 X8541.000 Y6980.000
G1 X8639.000 Y6958.000
G1 X8737.000 Y6933.000
G1 X8833.000 Y6904.000
G1 X8928.000 Y6871.000
G1 X9022.000 Y6835.000
G1 X9114.000 Y6795.000
G1 X9205.000 Y6751.000
G1 X9294.000 Y6704.000
G1 X9381.000 Y6653.000
G1 X9466.000 Y6599.000
G1 X9549.000 Y6542.000
G1 X9630.000 Y6481.000
G1 X9708.000 Y6417.000
G1 X9783.000 Y6351.000
G1 X9856.000 Y6281.000
G1 X9926.000 Y6209.000
G1 X9993.000 Y6134.000
G1 X10058.000 Y6056.000
G1 X10119.000 Y5976.000
G1 X10177.000 Y5894.000
G1 X10231.000 Y5809.000
G1 X10283.000 Y5723.000
G1 X10331.000 Y5634.000
G1 X10375.000 Y5544.000
G1 X10416.000 Y5451.000
G1 X10453.000 Y5358.000
G1 X10487.000 Y5263.000
G1 X10516.000 Y5167.000
G1 X10542.000 Y5069.000
G1 X10565.000 Y4971.000
G1 X10583.000 Y4872.000
G1 X10597.000 Y4772.000
G1 X10608.000 Y4672.000
G1 X10625.000 Y4505.000
G1 X10639.000 Y4338.000
G1 X10649.000 Y4170.000
G1 X10655.000 Y4002.000
G1 X10657.000 Y3835.000
G1 X10655.000 Y3667.000
G1 X10649.000 Y3499.000
G1 X10639.000 Y3331.000
G1 X10625.000 Y3164.000
G1 X10608.000 Y2997.000
G1 X10597.000 Y2897.000
G1 X10583.000 Y2797.000
G1 X10565.000 Y2698.000
G1 X10542.000 Y2600.000
G1 X10516.000 Y2502.000
G1 X10487.000 Y2406.000
G1 X10453.000 Y2311.000
G1 X10416.000 Y2217.000
G1 X10375.000 Y2125.000
G1 X10331.000 Y2035.000
G1 X10283.000 Y1946.000
G1 X10231.000 Y1860.000
G1 X10177.000 Y1775.000
G1 X10119.000 Y1693.000
G1 X10057.000 Y1613.000
G1 X9993.000 Y1535.000
G1 X9926.000 Y1460.000
G1 X9856.000 Y1388.000
G1 X9783.000 Y1318.000
G1 X9707.000 Y1251.000
G1 X9629.000 Y1188.000
G1 X9549.000 Y1127.000
G1 X9466.000 Y1070.000
G1 X9381.000 Y1016.000
G1 X9294.000 Y 965.000
G1 X9205.000 Y 918.000
G1 X9114.000 Y 874.000
G1 X9022.000 Y 834.000
G1 X8928.000 Y 798.000
G1 X8833.000 Y 765.000
G1 X8736.000 Y 736.000
G1 X8639.000 Y 711.000
G1 X8540.000 Y 689.000
G1 X8441.000 Y 672.000
G1 X8341.000 Y 658.000
G1 X8241.000 Y 648.000
G1 X8140.000 Y 642.000
G1 X8040.000 Y 641.000
G1 X5609.000 Y 641.000
F150
G1 Z  -3.000
F400
G1 X8040.000 Y 641.000
G1 X8140.000 Y 642.000
G1 X8241.000 Y 648.000
G1 X8341.000 Y 658.000
G1 X8441.000 Y 672.000
G1 X8540.000 Y 689.000
G1 X8639.000 Y 711.000
G1 X8736.000 Y 736.000
G1 X8833.000 Y 765.000
G1 X8928.000 Y 798.000
G1 X9022.000 Y 834.000
G1 X9114.000 Y 874.000
G1 X9205.000 Y 918.000
G1 X9294.000 Y 965.000
G1 X9381.000 Y1016.000
G1 X9466.000 Y1070.000
G1 X9549.000 Y1127.000
G1 X9629.000 Y1188.000
G1 X9707.000 Y1251.000
G1 X9783.000 Y1318.000
G1 X9856.000 Y1388.000
G1 X9926.000 Y1460.000
G1 X9993.000 Y1535.000
G1 X10057.000 Y1613.000
G1 X10119.000 Y1693.000
G1 X10177.000 Y1775.000
G1 X10231.000 Y1860.000
G1 X10283.000 Y1946.000
G1 X10331.000 Y2035.000
G1 X10375.000 Y2125.000
G1 X10416.000 Y2217.000
G1 X10453.000 Y2311.000
G1 X10487.000 Y2406.000
G1 X10516.000 Y2502.000
G1 X10542.000 Y2600.000
G1 X10565.000 Y2698.000
G1 X10583.000 Y2797.000
G1 X10597.000 Y2897.000
G1 X10608.000 Y2997.000
